!!!COM: Beethoven, Ludwig van
!!!CDT: 1770///-1827///
!!!ODT: 1806///
!!!OTL: String Quartet No. 9 in C Major, Op. 59, No. 3
!!!OPS: Op. 59
!!!ONM: No. 3
!!!OMV: Mvmt. 1
!!!OMD: Andante con moto.  Allegro vivace
!!!PDT: 1808///
!!!PPP: Vienna
!!!ODE: Dem Grafen Rasoumoffsky gewidmet
!!!ONB: Op. 59 are called the Rasumovsky Quartets
!!!MPD: 1806///
**kern	**dynam	**kern	**dynam	**kern	**dynam	**kern	**dynam
*staff4	*staff4	*staff3	*staff3	*staff2	*staff2	*staff1	*staff1
*clefF4	*clefF4	*clefC3	*clefC3	*clefG2	*clefG2	*clefG2	*clefG2
*Icello	*Icello	*Iviola	*Iviola	*Ivioln	*Ivioln	*Ivioln	*Ivioln
*>[A,B,B,C]	*>[A,B,B,C]	*>[A,B,B,C]	*>[A,B,B,C]	*>[A,B,B,C]	*>[A,B,B,C]	*>[A,B,B,C]	*>[A,B,B,C]
*>norep[A,B,C]	*>norep[A,B,C]	*>norep[A,B,C]	*>norep[A,B,C]	*>norep[A,B,C]	*>norep[A,B,C]	*>norep[A,B,C]	*>norep[A,B,C]
*k[]	*k[]	*k[]	*k[]	*k[]	*k[]	*k[]	*k[]
*C:	*C:	*C:	*C:	*C:	*C:	*C:	*C:
*M3/4	*M3/4	*M3/4	*M3/4	*M3/4	*M3/4	*M3/4	*M3/4
*MM118	*MM118	*MM118	*MM118	*MM118	*MM118	*MM118	*MM118
*>A	*>A	*>A	*>A	*>A	*>A	*>A	*>A
=1-	=1-	=1-	=1-	=1-	=1-	=1-	=1-
*	*	*	*	*	*	*^	*
[2.F#\	f	[2.c\	f	[2.e-/	f	[2.a/	[2.a\	f
*	*	*	*	*	*	*v	*v	*
=2	=2	=2	=2	=2	=2	=2	=2
*	*	*	*	*	*	*^	*
4F#\]	.	4c\]	.	4e-/]	.	4a/]	4a\]	.
*	*	*	*	*	*	*v	*v	*
4r	.	4r	.	4r	.	4r	.
4r	.	4r	.	4r	.	4r	.
=3	=3	=3	=3	=3	=3	=3	=3
[2.Fn\	pp	[2.c\	pp	[2.e-/	pp	[2.a/	pp
=4	=4	=4	=4	=4	=4	=4	=4
4F\]	.	4c\]	.	4e-/]	.	4a/]	.
4r	.	4r	.	4r	.	4r	.
4r	.	4r	.	4r	.	4r	.
=5	=5	=5	=5	=5	=5	=5	=5
(2.E\	.	[2.c\	.	2.en/	.	[2.a/	.
=6	=6	=6	=6	=6	=6	=6	=6
2D\)	pp	2c\]	pp	[2.f#/	pp	2.a/]	pp
(8.C/L	.	[4d\	.	.	.	.	.
32BB/LL	.	.	.	.	.	.	.
32C/JJJ	.	.	.	.	.	.	.
=7	=7	=7	=7	=7	=7	=7	=7
2BB/	.	(4d\]	.	(4f#/]	.	2.dd\	.
.	.	4g\	.	4b\	.	.	.
4AA/)	.	4f#\)	.	4cc\)	.	.	.
=8	=8	=8	=8	=8	=8	=8	=8
[2.AA-/	f	[2.fn\	f	(2.cc\	f	[2.d/ [2.dd/	f
=9	=9	=9	=9	=9	=9	=9	=9
4AA-/]	p	4f\]	p	4b\)	p	4d/] 4dd/]	p
4r	.	4r	.	4r	.	4r	.
4r	.	4r	.	4r	.	4r	.
=10	=10	=10	=10	=10	=10	=10	=10
[2.AA-/	.	[2.f\	.	(2.cc-\	.	[2.d/ [2.dd/	.
=11	=11	=11	=11	=11	=11	=11	=11
2.AA-/_	pp	2.f\]	pp	2b-\)	pp	2.d/] 2.dd/]	pp
.	.	.	.	[4B-/	.	.	.
=12	=12	=12	=12	=12	=12	=12	=12
(2AA-/]	.	[2.e-\	.	2.B-/_	.	(2.ee-\	.
[4GG/)	.	.	.	.	.	.	.
=13	=13	=13	=13	=13	=13	=13	=13
(2GG/]	.	(2e-\]	.	(2B-/]	.	2gg\	.
[4FF/)	.	4d\)	.	4Bn/)	.	8.aa-\L	.
.	.	.	.	.	.	32gg\LL	.
.	.	.	.	.	.	32aa-\JJJ)	.
=14	=14	=14	=14	=14	=14	=14	=14
2.FF/]	.	[2.G/	.	[2.d-/	.	[2.bb-\	.
=15	=15	=15	=15	=15	=15	=15	=15
[2.EE/	.	2.G/_	.	2.d-/]	.	2.bb-\_	.
=16	=16	=16	=16	=16	=16	=16	=16
(2.EE/]	.	2.G/_	.	[2.c/	.	2.bb-\]	.
=17	=17	=17	=17	=17	=17	=17	=17
2.EE-/)	.	2.G/]	.	2c/]	.	[2.ccc\	.
.	.	.	.	(4g/	.	.	.
=18	=18	=18	=18	=18	=18	=18	=18
[2.DD/	.	(2A-/	.	2f#/	.	2.ccc\_	.
.	.	4G/)	.	8.g/L	.	.	.
.	.	.	.	32f#/LL	.	.	.
.	.	.	.	32g/JJJ)	.	.	.
=19	=19	=19	=19	=19	=19	=19	=19
2.DD/_	.	[2.F/	.	[2.a-/	.	2.ccc\]	.
=20	=20	=20	=20	=20	=20	=20	=20
2.DD/]	.	2.F/_	.	2.a-/_	.	(2.bbn\	.
=21	=21	=21	=21	=21	=21	=21	=21
2.CC/	.	2.F/]	.	2.a-/]	.	2.ccc\)	.
=22	=22	=22	=22	=22	=22	=22	=22
[2.BB/	.	[2.F/	.	[2.a-/	.	[2.ddd\	.
=23	=23	=23	=23	=23	=23	=23	=23
2.BB/_	.	2.F/_	.	2.a-/_	.	2.ddd\_	.
=24	=24	=24	=24	=24	=24	=24	=24
4BB/]	.	4F/]	.	4a-/]	.	4ddd\]	.
4r	.	4r	.	4r	.	4r	.
4r	.	4r	.	4r	.	4r	.
=25	=25	=25	=25	=25	=25	=25	=25
2.r	.	2.r	.	2.r	.	2.r	.
=26	=26	=26	=26	=26	=26	=26	=26
[2.BB/	.	[2.A-/	.	[2.d/	.	[2.f/	.
=27	=27	=27	=27	=27	=27	=27	=27
2.BB/_	.	2.A-/_	.	2.d/_	.	2.f/_	.
=28	=28	=28	=28	=28	=28	=28	=28
2.BB/_	.	2.A-/]	.	2.d/_	.	2.f/_	.
=29	=29	=29	=29	=29	=29	=29	=29
2BB/]	.	2G/	.	2d/]	.	2f/]	.
=	=	=	=	=	=	=	=
*met(C)	*met(C)	*met(C)	*met(C)	*met(C)	*met(C)	*met(C)	*met(C)
*M4/4	*M4/4	*M4/4	*M4/4	*M4/4	*M4/4	*M4/4	*M4/4
8C'/	p	8G'/	p	8c'/	p	8e'/	p
8r	.	8r	.	8r	.	8r	.
=30!|:	=30!|:	=30!|:	=30!|:	=30!|:	=30!|:	=30!|:	=30!|:
*>B	*>B	*>B	*>B	*>B	*>B	*>B	*>B
*MM164	*MM164	*MM164	*MM164	*MM164	*MM164	*MM164	*MM164
2.GG/	.	2.G/	.	1r	.	2.f/	.
4r	.	4r	.	.	.	8.dd'\L	.
.	.	.	.	.	.	16ee'\Jk	.
=31	=31	=31	=31	=31	=31	=31	=31
1r	.	1r	.	1r	.	(8gg\L	.
.	.	.	.	.	.	8ff\J)	.
.	.	.	.	.	.	8dd'\L	.
.	.	.	.	.	.	16r	.
.	.	.	.	.	.	16ee'\Jk	.
.	.	.	.	.	.	(8ee\L	.
.	.	.	.	.	.	8dd\J)	.
.	.	.	.	.	.	8.b'\L	.
.	.	.	.	.	.	16cc'\Jk	.
=32	=32	=32	=32	=32	=32	=32	=32
1r	.	1r	.	1r	.	(8cc\L	.
.	.	.	.	.	.	8b\J)	.
.	.	.	.	.	.	8g'/L	.
.	.	.	.	.	.	16r	.
.	.	.	.	.	.	16a'/Jk	.
.	.	.	.	.	.	(8a'/L	.
.	.	.	.	.	.	8g'/	.
.	.	.	.	.	.	8f'/	.
.	.	.	.	.	.	8e'/J)	.
=33	=33	=33	=33	=33	=33	=33	=33
1r	.	1r	.	1r	.	(8d'/L	.
.	.	.	.	.	.	8e'/	.
.	.	.	.	.	.	8f'/	.
.	.	.	.	.	.	8g'/J)	.
.	.	.	.	.	.	(8a'/L	.
.	.	.	.	.	.	8g#'/	.
.	.	.	.	.	.	8a'/	.
.	.	.	.	.	.	8d'/J)	.
=34	=34	=34	=34	=34	=34	=34	=34
2r	.	4r	.	2r	.	(2f/	.
.	.	4B/	.	.	.	.	.
4r	.	8c/	.	4r	.	8e/)	.
.	.	8r	.	.	.	8r	.
8D'\	f	4A'/	f	8d'/	f	8f'/	f
8r	.	.	.	8r	.	8r	.
=35	=35	=35	=35	=35	=35	=35	=35
2.AA/	.	2.A/	.	2.c#/ 2.e/	.	2.gn/	.
4r	.	4r	.	4r	.	8gg'\L	p
.	.	.	.	.	.	16r	.
.	.	.	.	.	.	16aa'\Jk	.
=36	=36	=36	=36	=36	=36	=36	=36
1r	.	1r	.	1r	.	(8ccc\L	.
.	.	.	.	.	.	8bb-\J)	.
.	.	.	.	.	.	8gg'\L	.
.	.	.	.	.	.	16r	.
.	.	.	.	.	.	16aa'\Jk	.
.	.	.	.	.	.	(8aa\L	.
.	.	.	.	.	.	8gg\J)	.
.	.	.	.	.	.	8.ee\L	.
.	.	.	.	.	.	16ff'\Jk	.
=37	=37	=37	=37	=37	=37	=37	=37
1r	.	1r	.	1r	.	(8ff\L	.
.	.	.	.	.	.	8ee\J)	.
.	.	.	.	.	.	8cc#\L	.
.	.	.	.	.	.	16r	.
.	.	.	.	.	.	16dd'\Jk	.
.	.	.	.	.	.	(8ff'\L	.
.	.	.	.	.	.	8ee\	.
.	.	.	.	.	.	8dd'\	.
.	.	.	.	.	.	(8cc#'\J)	.
=38	=38	=38	=38	=38	=38	=38	=38
1r	.	1r	.	1r	.	8b-'/L	.
.	.	.	.	.	.	8a'/	.
.	.	.	.	.	.	8g'/	.
.	.	.	.	.	.	8f'/J	.
.	.	.	.	.	.	8e'/L	.
.	.	.	.	.	.	8d'/	.
.	.	.	.	.	.	8c#'/	.
.	.	.	.	.	.	8B-'/J)	.
=39	=39	=39	=39	=39	=39	=39	=39
1r	.	1r	.	1r	.	(8A'/L	.
.	.	.	.	.	.	8c#'/	.
.	.	.	.	.	.	8e'/	.
.	.	.	.	.	.	8a'/J)	.
.	.	.	.	.	.	(8cc#'/L	.
.	.	.	.	.	.	8dd'/	.
.	.	.	.	.	.	8ee'/	.
.	.	.	.	.	.	8e'/J)	.
=40	=40	=40	=40	=40	=40	=40	=40
2r	.	2r	.	4r	.	(2g/	.
.	.	.	.	(4c#/	.	.	.
4r	.	4r	.	8d/)	.	8f/)	.
.	.	.	.	8r	.	8r	.
8D'\	pp	8F'/	pp	8f'/	pp	8a'/	pp
8r	.	8r	.	8r	.	8r	.
=41	=41	=41	=41	=41	=41	=41	=41
1C	.	1G	.	1e	.	1b-	.
=42	=42	=42	=42	=42	=42	=42	=42
*	*	*^	*	*	*	*	*
1GG	f	1G	1F	f	1d	f	1d 1bn	f
*	*	*v	*v	*	*	*	*	*
=43	=43	=43	=43	=43	=43	=43	=43
*	*	*	*	*	*	*^	*
8CC/L	.	[2E/ (2G/	.	[2c/ [2e/	.	[2cc/	4G/ 4e/	.
8C/	.	.	.	.	.	.	.	.
8C/	.	.	.	.	.	.	4ryy	.
8C/J	.	.	.	.	.	.	.	.
*	*	*	*	*	*	*v	*v	*
8C/L	.	8E/]) 8G/L	.	8c/] 8e/]	.	8cc\L]	.
8C/	.	(16E/L	.	(16cc\LL	.	(16ccc\L	.
.	.	16F/JJ)	.	16dd\JJ)	.	16ddd\JJ)	.
8C/	.	8G'/L	.	8ee'\L	.	8eee'\L	.
8C/J	.	8E'/J	.	8cc'\J	.	8ccc'\J	.
=44	=44	=44	=44	=44	=44	=44	=44
8C/L	.	8F'/L	.	8a'/L	.	8aa'\L	.
8CC/	.	(16F/L	.	16a/L	.	(16aa\L	.
.	.	16G/JJ)	.	16b/JJ	.	16bb\JJ)	.
8C/	.	8A'/L	.	8cc'/L	.	8ccc'\L	.
8C/J	.	8F'/J	.	8a'/J	.	8aa'\J	.
8C/L	.	8d'/L	.	8f'/L	.	8ff'\L	.
8CC/	.	(16B/L	.	(16d/L	.	(16dd\L	.
.	.	16c/JJ)	.	16e/JJ)	.	16ee\JJ)	.
8C/	.	8d'/L	.	8f'/L	.	8ff'\L	.
8C/J	.	8B'/J	.	8d'/J	.	8dd'\J	.
=45	=45	=45	=45	=45	=45	=45	=45
8C/L	.	(8c/L	.	(8e/L	.	(8ee\L	.
8CC/	.	8G/J)	.	8g/J)	.	8gg\J)	.
8C/	.	[4E/	.	[4cc\	.	[4ccc\	.
8C/J	.	.	.	.	.	.	.
8C/L	.	8E/L]	.	8cc\L]	.	8ccc\L]	.
8C/	.	(16E/L	.	(16cc\L	.	(16ccc\L	.
.	.	16F/JJ)	.	16dd\JJ)	.	16gg\JJ)	.
8C/	.	8G'/L	.	8ee'\L	.	8eee'\L	.
8C/J	.	8E'/J	.	8cc'\J	.	8ccc'\J	.
=46	=46	=46	=46	=46	=46	=46	=46
8C/L	.	8F'/L	.	8a/L	.	8aa\L	.
8CC/	.	(16F/L	.	(16a/L	.	(16aa\L	.
.	.	16G/JJ)	.	16b/JJ)	.	16bb\JJ)	.
8C/	.	8A'/L	.	8cc'/L	.	8ccc'\L	.
8C/J	.	8F'/J	.	8a'/J	.	8aa'\J	.
8C/L	.	8d'/L	.	8f'/L	.	8ff'\L	.
8CC/	.	(16B/L	.	(16d/L	.	(16dd\L	.
.	.	16c/JJ)	.	16e/JJ)	.	16ee\JJ)	.
8C/	.	8d'/L	.	8f'/L	.	8ff'\L	.
8C/J	.	8B'/J	.	8d'/J	.	8dd'\J	.
=47	=47	=47	=47	=47	=47	=47	=47
8C/L	.	(8c/L	.	(8e/L	.	(8ee\L	.
8CC/	.	8G/J)	.	8g/J)	.	8gg\J)	.
8C/	.	4E/	.	4cc\	.	4ccc\	.
8C/J	.	.	.	.	.	.	.
2AA/	.	8r	.	8r	.	8r	.
.	.	(16c#\LL	.	(16e/LL	.	(16ee\LL	.
.	.	16d\JJ)	.	16f/JJ)	.	16ff\JJ)	.
.	.	8e'\L	.	8g'/L	.	8gg'\L	.
.	.	8c#'\J	.	8e'/J	.	8ee'\J	.
=48	=48	=48	=48	=48	=48	=48	=48
8D/L	.	8d/L	.	(8f/L	.	(8ff\L	.
8DD/	.	8A/J	.	8a/J)	.	8aa\J)	.
8D/	.	4F'/	.	4dd\	.	4ddd\	.
8D/J	.	.	.	.	.	.	.
2AA/	.	8r	.	8r	.	8r	.
.	.	(16c#\LL	.	(16e/LL	.	(16ee\LL	.
.	.	16d\JJ)	.	16f/JJ)	.	16ff\JJ)	.
.	.	8e'\L	.	8g'/L	.	8gg'\L	.
.	.	8c#'\J	.	8e'/J	.	8ee'\J	.
=49	=49	=49	=49	=49	=49	=49	=49
(8A\L	.	8d/L	.	(8f/L	.	(8ff\L	.
8F\J)	.	8A/J	.	8a/J)	.	8aa\J)	.
4D\	.	4F/	.	4dd\	.	4ddd\	.
(8d\L	.	(8f\L	.	(8dd\L	.	(8bb\L	.
8B\J)	.	8d\J)	.	8ff\J)	.	8ddd\J)	.
4G\	.	4d\	.	4bb\	.	4fff\	.
=50	=50	=50	=50	=50	=50	=50	=50
(8G\L	.	(8e\L	.	(8ee\L	.	(8ccc\L	.
8E\J)	.	8cn\J)	.	8ccc\J)	.	8eee\J)	.
4C/	.	4G/	.	4eee\	.	4ggg\	.
(8F/L	.	(8A/L	.	(8aa\L	.	(8ccc\L	.
8C/J)	.	8F/J)	.	8ccc\J)	.	8fff\J)	.
4FF/	.	4C/	.	4fff\	.	4aaa\	.
=51	=51	=51	=51	=51	=51	=51	=51
(8GG/L	.	[2C/	.	[2eee\	.	[2ggg\	.
16AA/L	.	.	.	.	.	.	.
16BB/JJ	.	.	.	.	.	.	.
16C/LL	.	.	.	.	.	.	.
16D/	.	.	.	.	.	.	.
16E/	.	.	.	.	.	.	.
16F/JJ)	.	.	.	.	.	.	.
[2G\	.	8C/L]	.	8eee\L]	.	8ggg\L]	.
.	.	(16D/L	.	(16ddd\L	.	(16fff\L	.
.	.	16E/JJ	.	16ccc\JJ	.	16eee\JJ	.
.	.	16F/LL	.	16bb\LL	.	16ddd\LL	.
.	.	16G/	.	16aa\	.	16ccc\	.
.	.	16A/	.	16gg\	.	16bb\	.
.	.	16B/JJ)	.	16ff\JJ)	.	16aa\JJ)	.
=52	=52	=52	=52	=52	=52	=52	=52
8G\L]	.	(4c\	.	(4ee\	.	(4gg\	.
8G\	.	.	.	.	.	.	.
8G\	.	8d\L	.	8dd\L	.	8ff\L	.
8G\J	.	8e\J)	.	8cc\J)	.	8ee\J)	.
8G\L	.	(8f\L	.	(4cc\	.	(4ee\	.
8G\	.	8f#\	.	.	.	.	.
8G\	.	8g\	.	8dd\L	.	8ff\L	.
8G\J	.	8fn\J)	.	8b\J)	.	8dd\J)	.
=53	=53	=53	=53	=53	=53	=53	=53
(8c\L	.	8e/L	.	(8cc\L	.	(8ee\L	.
8G\)	.	8c/	.	8ee\)	.	8gg\)	.
8E\	.	8G'/	.	8gg'\	.	8ccc'\	.
8E\J	.	8G'/J	.	8gg'\J	.	8ccc'\J	.
(8G\L	.	8c/L	.	(8ee\L	.	(8gg\L	.
8E\)	.	8G/	.	8gg\)	.	8ccc\)	.
8C'\	.	8E'/	.	8ccc'\	.	8eee'\	.
8C'\J	.	8E'/J	.	8ccc'\J	.	8eee'\J	.
=54	=54	=54	=54	=54	=54	=54	=54
(8F/L	.	8c/L	.	(8ff\L	.	(8aa\L	.
8C/)	.	8A/	.	8aa\)	.	8ccc\)	.
8AA'/	.	8F'/	.	8aa'\	.	8fff'\	.
8AA'/J	.	(8F'/J	.	8aa'\J	.	8fff'\J	.
(8C/L	.	8A/L	.	(8aa\L	.	(8ccc\L	.
8AA/)	.	8F/)	.	8ccc\)	.	8fff\)	.
8FF'/	.	8C'/	.	8fff'\	.	8aaa'\	.
8FF'/J	.	8C'/J	.	8fff'\J	.	8aaa'\J	.
=55	=55	=55	=55	=55	=55	=55	=55
[2GG/	.	(8BB/L	.	[2eee\	.	[2ggg\	.
.	.	16D/L	.	.	.	.	.
.	.	16E/JJ	.	.	.	.	.
.	.	16F/LL	.	.	.	.	.
.	.	16G/	.	.	.	.	.
.	.	16A/	.	.	.	.	.
.	.	16B/JJ	.	.	.	.	.
16GG/LL]	.	16c/LL)	.	8eee\L]	.	8ggg\L]	.
(16C/	.	(16E/	.	.	.	.	.
16D/	.	16F/	.	(16ddd\L	.	(16fff\L	.
16E/JJ	.	16G/JJ	.	16ccc\JJ	.	16eee\JJ	.
16F\LL	.	16A/LL	.	16bb\LL	.	16ddd\LL	.
16G\	.	16B/	.	16aa\	.	16ccc\	.
16A\	.	16c/	.	16gg\	.	16bb\	.
16B\JJ)	.	16d/JJ)	.	16ff\JJ)	.	16aa\JJ)	.
=56	=56	=56	=56	=56	=56	=56	=56
8c\	.	8e\	p	8ee\	.	8gg\	.
8r	.	8r	.	8r	.	8r	.
4r	.	4r	.	4r	.	8ggg\	.
.	.	.	.	.	.	8r	.
2r	.	2r	.	2r	.	8eee\	.
.	.	.	.	.	.	8r	.
.	.	.	.	.	.	8cccc\	.
.	.	.	.	.	.	8r	.
=57	=57	=57	=57	=57	=57	=57	=57
1r	.	4r	.	4r	.	[2G/	p
.	.	8c#\	p	8e/	p	.	.
.	.	8r	.	8r	.	.	.
.	.	[2d\	.	[2f/	.	(8G/L]	.
.	.	.	.	.	.	16A/L	.
.	.	.	.	.	.	16B/JJ	.
.	.	.	.	.	.	16c/LL	.
.	.	.	.	.	.	16d/	.
.	.	.	.	.	.	16e/	.
.	.	.	.	.	.	16f/JJ)	.
=58	=58	=58	=58	=58	=58	=58	=58
2r	.	2d\_	.	2f/_	.	(8g\L	.
.	.	.	.	.	.	16a\L	.
.	.	.	.	.	.	16b\JJ	.
.	.	.	.	.	.	16cc\LL	.
.	.	.	.	.	.	16dd\	.
.	.	.	.	.	.	16ee\	.
.	.	.	.	.	.	16ff\JJ)	.
2GG/	p	4d\]	.	4.f/]	.	(4gg\	.
.	.	(8B/L	.	.	.	8ff\L	.
.	.	8F/J)	.	8d/	.	8dd\J)	.
=59	=59	=59	=59	=59	=59	=59	=59
4C/	.	4E/	.	(16c/LL	.	4cc\	.
.	.	.	.	16e/	.	.	.
.	.	.	.	16d/	.	.	.
.	.	.	.	16f/JJ	.	.	.
4r	.	4r	.	16e/LL	.	4r	.
.	.	.	.	16g/	.	.	.
.	.	.	.	16f/	.	.	.
.	.	.	.	16a/JJ	.	.	.
8r	.	8r	.	2g/)	.	8r	.
8E\L	.	8G/L	.	.	.	8c/L	.
8E\	.	8G/	.	.	.	8c/	.
8E\J	.	8G/J	.	.	.	8c/J	.
=60	=60	=60	=60	=60	=60	=60	=60
4D\	.	4G/	.	(16f/LL	.	4B/	.
.	.	.	.	16a/	.	.	.
.	.	.	.	16g/	.	.	.
.	.	.	.	16e/JJ	.	.	.
4r	.	4r	.	16d/LL	.	4r	.
.	.	.	.	16f/	.	.	.
.	.	.	.	16e/	.	.	.
.	.	.	.	16c/JJ	.	.	.
8r	.	8r	.	16B/LL	.	8r	.
.	.	.	.	16d/	.	.	.
8GG/L	.	8D'/L	.	16c/	.	8ff'\	.
.	.	.	.	16A/JJ	.	.	.
8GG/	.	(8D/	.	8G/L	.	(8ff\L	.
8GG/J	.	8F/J)	.	16A/L	.	8dd\J)	.
.	.	.	.	16B/JJ)	.	.	.
=61	=61	=61	=61	=61	=61	=61	=61
4C/	.	4E/	.	4c/	.	(16cc\LL	.
.	.	.	.	.	.	16ee\	.
.	.	.	.	.	.	16dd\	.
.	.	.	.	.	.	16ff\JJ	.
4r	.	4r	.	4r	.	16ee\LL	.
.	.	.	.	.	.	16gg\	.
.	.	.	.	.	.	16ff\	.
.	.	.	.	.	.	16aa\JJ	.
8r	.	8r	.	8r	.	2gg\)	.
8e\L	.	8g\L	.	8cc\L	.	.	.
8e'\	.	8g\	.	8cc\	.	.	.
8e\J	.	8g\J	.	8cc\J	.	.	.
=62	=62	=62	=62	=62	=62	=62	=62
4d\	.	4g\	.	4b\	.	(16ff\LL	.
.	.	.	.	.	.	16aa\	.
.	.	.	.	.	.	16gg\	.
.	.	.	.	.	.	16ee\JJ	.
4r	.	4r	.	4r	.	16dd\LL	.
.	.	.	.	.	.	16ff\	.
.	.	.	.	.	.	16ee\	.
.	.	.	.	.	.	16cc\JJ	.
8r	.	8r	.	8r	.	16b\LL	.
.	.	.	.	.	.	16dd\	.
8GG/L	.	8D'/L	.	8f'/L	.	16cc\	.
.	.	.	.	.	.	16a\JJ	.
8GG/	.	(8D/	.	(8f/	.	8g\L	.
8GG/J	.	8F/J)	.	8d/J)	.	16a\L	.
.	.	.	.	.	.	16b\JJ)	.
=63	=63	=63	=63	=63	=63	=63	=63
(16C\LL	.	4E/	.	4c/	.	4cc\	.
16E\	.	.	.	.	.	.	.
16D\	.	.	.	.	.	.	.
16F\JJ	.	.	.	.	.	.	.
16E\LL	.	4r	.	4r	.	4r	.
16G\	.	.	.	.	.	.	.
16F\	.	.	.	.	.	.	.
16A\JJ)	.	.	.	.	.	.	.
(16G\LL	.	2r	.	2r	.	2r	.
16c\	.	.	.	.	.	.	.
16B\	.	.	.	.	.	.	.
16d\JJ	.	.	.	.	.	.	.
16c\LL	.	.	.	.	.	.	.
16e\	.	.	.	.	.	.	.
16d\	.	.	.	.	.	.	.
16f\JJ)	.	.	.	.	.	.	.
*clefC4	*clefG2	*	*	*	*	*	*
=64	=64	=64	=64	=64	=64	=64	=64
(16e\LL	.	1r	.	1r	.	1r	.
16g\	.	.	.	.	.	.	.
16f\	.	.	.	.	.	.	.
16a\JJ)	.	.	.	.	.	.	.
8g'\L	.	.	.	.	.	.	.
8g'\J	.	.	.	.	.	.	.
8g'\L	.	.	.	.	.	.	.
8g'\	.	.	.	.	.	.	.
8g'\	.	.	.	.	.	.	.
8g'\J	.	.	.	.	.	.	.
=65	=65	=65	=65	=65	=65	=65	=65
[1g	.	2r	.	2r	.	4r	.
.	.	.	.	.	.	8dd#'\	.
.	.	.	.	.	.	8r	.
.	.	4r	.	4r	.	[2ee\	.
.	.	8c#'\	.	8b-'\	.	.	.
.	.	8r	.	8r	.	.	.
=66	=66	=66	=66	=66	=66	=66	=66
1g_	<	(2d\	<	(2a/	<	4ee\]	<
.	.	.	.	.	.	4ee\	.
.	.	2G\ 2f\)	>	2bn\)	>	4gg\	>
.	.	.	.	.	.	8ff\L	.
.	.	.	.	.	.	8dd\J)	.
=67	=67	=67	=67	=67	=67	=67	=67
1g_	.	2.c\	.	2.e/ 2.cc/	.	8cc\	.
.	.	.	.	.	.	8r	.
.	.	.	.	.	.	8dd#'\	.
.	.	.	.	.	.	8r	.
.	.	.	.	.	.	[2ee\	.
.	.	8c#'\	.	8b-'\	.	.	.
.	.	8r	.	8r	.	.	.
=68	=68	=68	=68	=68	=68	=68	=68
1g_	>	(2d\	<	(2a/	<	4ee\]	<
.	.	.	.	.	.	(4ee\	.
.	.	2G\ 2f\)	>	2bn\)	>	4gg\	>
.	.	.	.	.	.	8ff\L	.
.	.	.	.	.	.	8dd\J)	.
=69	=69	=69	=69	=69	=69	=69	=69
(4g\]	.	2.c\	.	2.cc\	.	8ee\	.
.	.	.	.	.	.	8r	.
8f\L	.	.	.	.	.	8dd\	.
8e\J)	.	.	.	.	.	8r	.
(12e\L	.	.	.	.	.	[2ee\	.
12d\	.	.	.	.	.	.	.
12c\J	.	.	.	.	.	.	.
12B\L	.	(4c\	.	(8e/L	.	.	.
12c\	.	.	.	.	.	.	.
.	.	.	.	8a/J)	.	.	.
12A\J)	.	.	.	.	.	.	.
=70	=70	=70	=70	=70	=70	=70	=70
*clefF4	*clefF4	*	*	*	*	*	*
(4B\	.	4d\	.	(4g#/	.	4ee\]	.
4G#\	.	4B/	.	2b/	.	(4gg#\	.
4E\	.	4G#/	.	.	.	4bb\	.
4G#\)	.	4B/)	.	[4e/)	.	8gg#\L	.
.	.	.	.	.	.	8dd\J)	.
=71	=71	=71	=71	=71	=71	=71	=71
4A\	.	8c'/	.	(8e/L]	.	8cc\	.
.	.	8r	.	16f#/L	.	8r	.
.	.	.	.	16g#/JJ)	.	.	.
2r	.	8B'/	.	8a'/L	.	4r	.
.	.	8r	.	8a'/J	.	.	.
.	.	[2c\	.	(4a/	.	(8ee\L	.
.	.	.	.	.	.	16ff#\L	.
.	.	.	.	.	.	16gg#\JJ)	.
8E-'\	.	.	.	4gn/)	.	8aa'\L	.
8r	.	.	.	.	.	8aa'\J	.
=72	=72	=72	=72	=72	=72	=72	=72
2.D\	.	8c\]	.	8f#/L	.	[2aa\	.
.	.	8r	.	(16f#/L	.	.	.
.	.	.	.	16g#/JJ)	.	.	.
.	.	8B'/	.	8a'/L	.	.	.
.	.	8r	.	8a'/J	.	.	.
.	.	[2c/	.	(4a/	.	8aa\L]	.
.	.	.	.	.	.	(16ff#\L	.
.	.	.	.	.	.	16gg#\JJ)	.
8E-\	.	.	.	4gn/)	.	8aa'\L	.
8r	.	.	.	.	.	8aa'\J	.
=73	=73	=73	=73	=73	=73	=73	=73
4.D\	.	8c/L]	.	8f#/L	.	[2aa\	.
.	.	8B'/J	.	(16f#/L	.	.	.
.	.	.	.	16g/JJ	.	.	.
.	.	4.c\	.	16a/LL	.	.	.
.	.	.	.	16g/	.	.	.
8E-'\	.	.	.	16f#/	.	.	.
.	.	.	.	16g/JJ)	.	.	.
4.D\	.	.	.	[2a/	.	8aa\L]	.
.	.	8B'/	.	.	.	(16ff#\L	.
.	.	.	.	.	.	16gg\JJ	.
.	.	4c\	.	.	.	16aa\LL	.
.	.	.	.	.	.	16gg\	.
8E-'\	.	.	.	.	.	16ff#\	.
.	.	.	.	.	.	16gg\JJ)	.
=74	=74	=74	=74	=74	=74	=74	=74
4.D\	.	8c\	.	(8a/L]	.	[4aa\	.
.	.	8B'/	.	16f#/L	.	.	.
.	.	.	.	16g/JJ)	.	.	.
.	.	4.c\	.	[4a/	.	(8aa\L]	.
8E-\	.	.	.	.	.	16ff#\L	.
.	.	.	.	.	.	16gg\JJ)	.
4.D\	.	.	.	(8a/L]	.	[4aa\	.
.	.	8B'/	.	16f#/L	.	.	.
.	.	.	.	16g/JJ)	.	.	.
.	.	[4c\	.	[4a/	.	(8aa\L]	.
8E-\	.	.	.	.	.	16ff#\L	.
.	.	.	.	.	.	16gg\JJ)	.
=75	=75	=75	=75	=75	=75	=75	=75
8D\	f	8c\]	f	8a\L]	.	8aa'\L	.
8r	.	8r	.	(16ff#\L	f	(16aa\L	f
.	.	.	.	16gg\JJ)	.	16bb\JJ)	.
8D\	.	8f#\ 8a\	.	8aa'\L	.	8ccc'\L	.
8r	.	8r	.	(16aa\L	.	(16ccc\L	.
.	.	.	.	16bb\JJ)	.	16ddd\JJ)	.
8D\	.	8f#\	.	8ccc'\L	.	8eee'\L	.
8r	.	8r	.	(16ff#\L	.	(16aa\L	.
.	.	.	.	16gg\JJ)	.	16bb\JJ)	.
8D\	.	8F#/ 8A/	.	8aa'\L	.	8ccc'\L	.
8r	.	8r	.	(16dd\L	.	(16ff#\L	.
.	.	.	.	16ee\JJ)	.	16gg\JJ)	.
=76	=76	=76	=76	=76	=76	=76	=76
8D\	.	8D/ 8c/	.	16ff#\LL	.	16aa\LL	.
.	.	.	.	16gg\	.	16bb\	.
8r	.	8r	.	16aa\	.	16ccc\	.
.	.	.	.	16bb\JJ	.	16ddd\JJ	.
4r	.	4r	.	16aa\LL	.	16ccc\LL	.
.	.	.	.	16gg\	.	16bb\	.
.	.	.	.	16ff#\	.	16aa\	.
.	.	.	.	16ee\JJ	.	16gg\JJ	.
2r	.	2r	.	16dd\LL	.	16ff#\LL	.
.	.	.	.	16ee\	.	16gg\	.
.	.	.	.	16dd\	.	16ff#\	.
.	.	.	.	16cc\JJ	.	16ee\JJ	.
.	.	.	.	16b\LL	.	16dd\LL	.
.	.	.	.	16cc\	.	16ee\	.
.	.	.	.	16b\	.	16dd\	.
.	.	.	.	16a\JJ	.	16cc\JJ	.
=77	=77	=77	=77	=77	=77	=77	=77
8GG/	f	8D/ 8B/	f	8B/ 8g/	.	8d/ 8b/	f
8r	.	8r	.	8r	.	8r	.
4r	.	4r	.	4r	.	(16d/LL	p
.	.	.	.	.	.	16e/	.
.	.	.	.	.	.	16f#/	.
.	.	.	.	.	.	16d/JJ	.
2r	.	2r	.	2r	.	16g/LL	.
.	.	.	.	.	.	16a/	.
.	.	.	.	.	.	16b/	.
.	.	.	.	.	.	16g/JJ)	.
.	.	.	.	.	.	8dd'\L	.
.	.	.	.	.	.	8dd'\J	.
=78	=78	=78	=78	=78	=78	=78	=78
8C/	p	4r	.	8c/ 8e/	p	(4dd\	.
8r	.	.	.	8r	.	.	.
4r	.	(16E/LL	p	4r	.	[2.cc\)	.
.	.	16F#/	.	.	.	.	.
.	.	16G#/	.	.	.	.	.
.	.	16E/JJ	.	.	.	.	.
2r	.	16A/LL	.	2r	.	.	.
.	.	16B/	.	.	.	.	.
.	.	16c/	.	.	.	.	.
.	.	16A/JJ)	.	.	.	.	.
.	.	8e'\L	.	.	.	.	.
.	.	8e'\J	.	.	.	.	.
=79	=79	=79	=79	=79	=79	=79	=79
4r	.	(4e\	.	2r	.	2.cc\]	.
(16DD/LL	.	2d\)	.	.	.	.	.
16EE/	.	.	.	.	.	.	.
16FF#/	.	.	.	.	.	.	.
16DD/JJ	.	.	.	.	.	.	.
16AA/LL	.	.	.	4r	.	.	.
16BB/	.	.	.	.	.	.	.
16C/	.	.	.	.	.	.	.
16AA/JJ	.	.	.	.	.	.	.
16D/LL	.	(4d\	.	(8a\L	.	(4ff#\	.
16C/	.	.	.	.	.	.	.
16BB/	.	.	.	16b\L	.	.	.
16AA/JJ)	.	.	.	16cc\JJ)	.	.	.
=80	=80	=80	=80	=80	=80	=80	=80
8BB/	.	8G/)	.	(16dd\LL	.	8gg'\)	.
.	.	.	.	16ee\	.	.	.
8r	.	8r	.	16ff#\	.	8r	.
.	.	.	.	16gg\JJ	.	.	.
8C/	.	8g\	.	16ff#\LL	.	8eee\	.
.	.	.	.	16ee\	.	.	.
8r	.	8r	.	16dd\	.	8r	.
.	.	.	.	16cc\JJ)	.	.	.
8D\	.	8g\	.	(16b\LL	.	8ddd\	.
.	.	.	.	16cc\	.	.	.
8r	.	8r	.	16dd\	.	8r	.
.	.	.	.	16ee\JJ	.	.	.
8D\	.	8c\	.	16dd\LL	.	8ff#\	.
.	.	.	.	16cc\	.	.	.
8r	.	8r	.	16b\	.	8r	.
.	.	.	.	16a\JJ)	.	.	.
=81	=81	=81	=81	=81	=81	=81	=81
8GG/	f	8B/	f	8g/	f	8gg\	f
8r	.	8r	.	8r	.	8r	.
4r	.	(16D/LL	p	4r	.	4r	.
.	.	16E/	.	.	.	.	.
.	.	16F#/	.	.	.	.	.
.	.	16D/JJ	.	.	.	.	.
2r	.	16G/LL	.	2r	.	2r	.
.	.	16A/	.	.	.	.	.
.	.	16B/	.	.	.	.	.
.	.	16G/JJ)	.	.	.	.	.
.	.	8d'\L	.	.	.	.	.
.	.	8d'\J	.	.	.	.	.
=82	=82	=82	=82	=82	=82	=82	=82
1r	.	(4d\	.	1r	.	4r	.
.	.	[2.c\)	.	.	.	(16ee\LL	p
.	.	.	.	.	.	16ff#\	.
.	.	.	.	.	.	16gg\	.
.	.	.	.	.	.	16ee\JJ	.
.	.	.	.	.	.	16aa\LL	.
.	.	.	.	.	.	16bb\	.
.	.	.	.	.	.	16ccc\	.
.	.	.	.	.	.	16aa\JJ)	.
.	.	.	.	.	.	8eee'\L	.
.	.	.	.	.	.	8eee'\J	.
=83	=83	=83	=83	=83	=83	=83	=83
1r	.	2c\]	.	4r	.	(4eee\	.
.	.	.	.	(16f#/LL	p	[2.ddd\)	.
.	.	.	.	16g/	.	.	.
.	.	.	.	16a/	.	.	.
.	.	.	.	16f#/JJ	.	.	.
.	.	2B/	.	16g#/LL	.	.	.
.	.	.	.	16a/	.	.	.
.	.	.	.	16b/	.	.	.
.	.	.	.	16g#/JJ)	.	.	.
.	.	.	.	8ee'\L	.	.	.
.	.	.	.	8ee'\J	.	.	.
=84	=84	=84	=84	=84	=84	=84	=84
4r	.	(2.A/	.	(2ee\	.	(4ddd\]	.
(16AA/LL	p	.	.	.	.	[2.ccc\)	.
16BB/	.	.	.	.	.	.	.
16C/	.	.	.	.	.	.	.
16AA/JJ	.	.	.	.	.	.	.
16E\LL	.	.	.	4cc\	.	.	.
16F#\	.	.	.	.	.	.	.
16G#\	.	.	.	.	.	.	.
16E\JJ)	.	.	.	.	.	.	.
8A'\L	.	4E/)	.	4a/)	.	.	.
8A'\J	.	.	.	.	.	.	.
=85	=85	=85	=85	=85	=85	=85	=85
[1B	pp	(2D#/	.	(4a/	pp	(4ccc\]	pp
.	.	.	.	4f#/	.	4bb\	.
.	.	4E/	.	4g/	.	4gg\	.
.	.	4G/)	.	4b/)	.	4ee\	.
=86	=86	=86	=86	=86	=86	=86	=86
4B\]	.	(4F#/	.	(4a/	.	4dd#\	.
[2.BB/	.	4D#/	.	4f#/	.	4b\	.
.	.	4E/	.	4B/)	.	4g/	.
.	.	4G/)	.	4B/	.	4e/)	.
=87	=87	=87	=87	=87	=87	=87	=87
4BB/]	.	[1G	.	[1d	.	[1fn	.
16BB/LL	.	.	.	.	.	.	.
(16C/	.	.	.	.	.	.	.
16D/	.	.	.	.	.	.	.
16C/JJ	.	.	.	.	.	.	.
16BB/LL	.	.	.	.	.	.	.
16C/	.	.	.	.	.	.	.
16BB/	.	.	.	.	.	.	.
16AA/JJ	.	.	.	.	.	.	.
16GG/LL	.	.	.	.	.	.	.
16AA/	.	.	.	.	.	.	.
16BB/	.	.	.	.	.	.	.
16C/JJ)	.	.	.	.	.	.	.
=88	=88	=88	=88	=88	=88	=88	=88
(16D/LL	.	2G/]	.	2d\]	.	2f/]	.
16E/	.	.	.	.	.	.	.
16Fn/	.	.	.	.	.	.	.
16E/JJ	.	.	.	.	.	.	.
16D/LL	.	.	.	.	.	.	.
16C/	.	.	.	.	.	.	.
16BB/	.	.	.	.	.	.	.
16AA/JJ	.	.	.	.	.	.	.
16GG/LL	.	[2G/	.	2fn/	.	2b\	.
16AA/	.	.	.	.	.	.	.
16GG/	.	.	.	.	.	.	.
16FF/JJ	.	.	.	.	.	.	.
16EE/LL	.	.	.	.	.	.	.
16FF/	.	.	.	.	.	.	.
16EE/	.	.	.	.	.	.	.
16DD/JJ)	f	.	.	.	.	.	.
=89	=89	=89	=89	=89	=89	=89	=89
8CC/L	.	16G/LL]	f	16e/LL	f	2cc\	f
.	.	16C/	.	16e/	.	.	.
8C/	.	16D/	.	16f/	.	.	.
.	.	16E/JJ	.	16g/JJ	.	.	.
8C/	.	16Fn/LL	.	16a\LL	.	.	.
.	.	16G/	.	16b\	.	.	.
8C/J	f	16A/	.	16cc\	.	.	.
.	.	16B/JJ	.	16dd\JJ	.	.	.
8AA\L	.	16c/LL	.	16ee/LL	f	2ee\	f
.	.	(16c/	f	(16e/	.	.	.
8A\	.	16B/	.	16d/	.	.	.
.	.	16c/JJ	.	16e/JJ	.	.	.
8A\	.	16d/LL	.	16f/LL	.	.	.
.	.	16c/	.	16e/	.	.	.
8A\J	.	16B/	.	16d/	.	.	.
.	.	16c/JJ)	.	16e/JJ)	.	.	.
=90	=90	=90	=90	=90	=90	=90	=90
8D\L	f	16r	.	16r	.	2dd\	f
.	.	(16B/LL	f	(16d/LL	f	.	.
8d\	.	16A/	.	16c/	.	.	.
.	.	16B/JJ	.	16d/JJ	.	.	.
8d\	.	16c/LL	.	16e/LL	.	.	.
.	.	16B/	.	16d/	.	.	.
8d\J	f	16A/	.	16c/	.	.	.
.	.	16B/JJ)	.	16d/JJ)	.	.	.
8DD/L	.	16r	.	16r	.	2ff#\	f
.	.	(16A/LL	f	(16f#/LL	f	.	.
8D/	.	16c/	.	16a/	.	.	.
.	.	16A/JJ	.	16f#/JJ	.	.	.
8D/	.	16c/LL	.	16a/LL	.	.	.
.	.	16A/	.	16f#/	.	.	.
8D/J	.	16c/	.	16a/	.	.	.
.	.	16A/JJ)	.	16f#/JJ)	.	.	.
=91	=91	=91	=91	=91	=91	=91	=91
8GG/	p	8B/	p	8g/	p	8gg\	p
8r	.	8r	.	8r	.	8r	.
4r	.	4r	.	4r	.	8aa#\	.
.	.	.	.	.	.	8r	.
4r	.	4r	.	4r	.	[2bb\	.
8d#'\	.	8f#'\	.	8aa'\	.	.	.
8r	.	8r	.	8r	.	.	.
=92	=92	=92	=92	=92	=92	=92	=92
(4e\	.	(4g\	.	(4gg\	.	4bb\]	.
4d\	.	4fn\	.	4gg#\	.	(4bb\	.
4c\	.	4e\	.	4aa\	.	4ccc\	.
8B\L	.	8d\L	.	8bb\L	.	8ddd\L	.
8A\J)	.	8c\J)	.	8ccc\J)	.	8eee\J)	.
=93	=93	=93	=93	=93	=93	=93	=93
[1d	.	1g	.	(16bb\LL	.	[2ddd\	.
.	.	.	.	16dd\	.	.	.
.	.	.	.	16ee\	.	.	.
.	.	.	.	16ff#\JJ	.	.	.
.	.	.	.	16ggn\LL	.	.	.
.	.	.	.	16ff#\	.	.	.
.	.	.	.	16gg\	.	.	.
.	.	.	.	16aa\JJ)	.	.	.
.	.	.	.	(4bb\	.	(8ddd\L]	.
.	.	.	.	.	.	16ccc\L	.
.	.	.	.	.	.	16bb\JJ	.
.	.	.	.	4b\)	.	16aa\LL	.
.	.	.	.	.	.	16gg\	.
.	.	.	.	.	.	16ff#\	.
.	.	.	.	.	.	16gg\JJ)	.
=94	=94	=94	=94	=94	=94	=94	=94
1d]	.	[2a\	.	2.cc\	.	(16ff#\LL	.
.	.	.	.	.	.	16aa\	.
.	.	.	.	.	.	16ccc\	.
.	.	.	.	.	.	16aa\JJ	.
.	.	.	.	.	.	16ff#\LL	.
.	.	.	.	.	.	16dd\	.
.	.	.	.	.	.	16cc\	.
.	.	.	.	.	.	16a\JJ	.
.	.	4a\_	.	.	.	16f#/LL	.
.	.	.	.	.	.	16a/	.
.	.	.	.	.	.	16cc/	.
.	.	.	.	.	.	16a/JJ	.
.	.	8a\L]	.	4A/ (4f#/	.	16f#/LL	.
.	.	.	.	.	.	16d/	.
.	.	16b\L	.	.	.	16c/	.
.	.	16cc\JJ	.	.	.	16A/JJ)	.
=95	=95	=95	=95	=95	=95	=95	=95
[1D	.	[2dd\	.	&(2.B/&) 2.g/)	.	(16B/LL	.
.	.	.	.	.	.	16d/	.
.	.	.	.	.	.	16e/	.
.	.	.	.	.	.	16f#/JJ	.
.	.	.	.	.	.	16g/LL	.
.	.	.	.	.	.	16f#/	.
.	.	.	.	.	.	16g/	.
.	.	.	.	.	.	16a/JJ)	.
.	.	(8dd\L]	.	.	.	(4b/	.
.	.	16cc\L	.	.	.	.	.
.	.	16b\JJ)	.	.	.	.	.
.	.	(16a\LL	.	(4G/	.	4B/)	.
.	.	16g\	.	.	.	.	.
.	.	16f#\	.	.	.	.	.
.	.	16g\JJ)	.	.	.	.	.
=96	=96	=96	=96	=96	=96	=96	=96
1D]	.	(16f#\LL	.	2.A/)	.	2.c/	.
.	.	16a\	.	.	.	.	.
.	.	16cc\	.	.	.	.	.
.	.	16a\JJ	.	.	.	.	.
.	.	16f#\LL	.	.	.	.	.
.	.	16d\	.	.	.	.	.
.	.	16c\	.	.	.	.	.
.	.	16A\JJ	.	.	.	.	.
.	.	16F#/LL	.	.	.	.	.
.	.	16A/	.	.	.	.	.
.	.	16c/	.	.	.	.	.
.	.	16A/JJ	.	.	.	.	.
.	.	16F#/LL	.	4f#/	.	4aa\	.
.	.	16A/	.	.	.	.	.
.	.	16d/	.	.	.	.	.
.	.	16c/JJ)	.	.	.	.	.
=97	=97	=97	=97	=97	=97	=97	=97
[2d\	.	(16B/LL	.	[2g/	.	[2bb\	.
.	.	16D/	.	.	.	.	.
.	.	16E/	.	.	.	.	.
.	.	16F#/JJ	.	.	.	.	.
.	.	16G/LL	.	.	.	.	.
.	.	16F#/	.	.	.	.	.
.	.	16G/	.	.	.	.	.
.	.	16A/JJ	.	.	.	.	.
(8d\L]	.	8B/L)	.	8g/L]	.	8bb\L]	.
16c\L	.	8D/	.	8a'/	.	8ccc'\	.
16B\JJ	.	.	.	.	.	.	.
16A\LL	.	8D/	.	8b'/	.	8ddd'\	.
16G\	.	.	.	.	.	.	.
16F#\	.	8D/J	.	8cc'/J	.	8eee'\J	.
16G\JJ)	.	.	.	.	.	.	.
=98	=98	=98	=98	=98	=98	=98	=98
(16F#\LL	.	8D/	.	1cc	.	1aa	.
16A\	.	.	.	.	.	.	.
16c\	.	8r	.	.	.	.	.
16A\JJ	.	.	.	.	.	.	.
16F#\LL	.	2.f#\	.	.	.	.	.
16D\	.	.	.	.	.	.	.
16C\	.	.	.	.	.	.	.
16AA\JJ	.	.	.	.	.	.	.
16FF#/LL	.	.	.	.	.	.	.
16AA/	.	.	.	.	.	.	.
16C/	.	.	.	.	.	.	.
16AA/JJ	.	.	.	.	.	.	.
16FF#/LL	.	.	.	.	.	.	.
16AA/	.	.	.	.	.	.	.
16FF#/	.	.	.	.	.	.	.
16DD/JJ)	.	.	.	.	.	.	.
=99	=99	=99	=99	=99	=99	=99	=99
(16GG/LL	f	4g\	f	4b\	f	4gg\	f
16FF#/	.	.	.	.	.	.	.
16GG/	.	.	.	.	.	.	.
16EE/JJ)	.	.	.	.	.	.	.
8DD'/L	.	4r	.	4r	.	4r	.
8EE'/J	.	.	.	.	.	.	.
8FF#'/L	.	2r	.	2r	.	2r	.
8GG'/	.	.	.	.	.	.	.
8AA'/	.	.	.	.	.	.	.
8BB'/J	.	.	.	.	.	.	.
=100	=100	=100	=100	=100	=100	=100	=100
8GG'/L	.	(16G/LL	.	1r	.	1r	.
.	.	16F#/	.	.	.	.	.
8AA'/	.	16G/	.	.	.	.	.
.	.	16E/JJ)	.	.	.	.	.
8BB'/	.	8D'/L	.	.	.	.	.
8C'/J	.	8E'/J	.	.	.	.	.
8AA'/L	.	(8F#'/L	.	.	.	.	.
8BB'/	.	8G'/	.	.	.	.	.
8C'/	.	8A'/)	.	.	.	.	.
8D'/J	.	8B'/J	.	.	.	.	.
=101	=101	=101	=101	=101	=101	=101	=101
8BB'/L	.	8G'/L	.	2r	.	(16g/LL	f
.	.	.	.	.	.	16f#/	.
8C'/	.	8A'/	.	.	.	16g/	.
.	.	.	.	.	.	16e/JJ)	.
8D'/	.	8B'/	.	.	.	8d'/L	.
8C'/J	.	8A'/J	.	.	.	8e'/J	.
8AA'/L	.	8c'/L	.	8d'/L	.	8f#'/L	.
8BB'/	.	8B'/	.	8d'/	.	8g'/	.
8FF#'/	.	8D'/	.	8c'/	.	8a'/	.
8GG'/J	.	8D'/J	.	8B'/J	.	8b'/J	.
=102	=102	=102	=102	=102	=102	=102	=102
8D'/L	.	8B'/L	.	8e'/L	.	8g#'/L	.
8C'/	.	8A'/	.	8e'/	.	8a'/	.
8GG#'/	.	8E'/	.	8d'/	.	8b'/	.
8AA'/J	.	8E'/J	.	8c'/J	.	8cc'/J	.
8BB'/L	.	8Fn'/L	.	8g'/L	.	8dd'\L	.
8C'/	.	8E'/	.	8g'/	.	8ee'\	.
8AA'/	.	8D'/	.	8cc'/	.	8ff#'\	.
8BB'/J	.	8D'/J	.	8b'/J	.	8ggn'\J	.
=103	=103	=103	=103	=103	=103	=103	=103
8FF#'/L	.	8d'\L	.	8cc'\L	.	8aa'\L	.
8GGn'/	.	8d'\	.	8b'\	.	8bb'\	.
8EE'/	.	8c'\	.	8gg'\	.	8ccc'\	.
8DD'/J	.	8B'\J	.	8gg'\J	.	8ddd'\J	.
8CC/	.	8c\ 8e\	.	8a\ 8gg\	.	8eee\	.
8r	.	8r	.	8r	.	8r	.
8DD/	.	8c\ 8d\	.	8a\ 8ff#\	.	8fff#\	.
8r	.	8r	.	8r	.	8r	.
=104	=104	=104	=104	=104	=104	=104	=104
4GG/	.	4B\ 4d\	.	4b\ 4gg\	.	(16ggg\LL	.
.	.	.	.	.	.	16fff#\	.
.	.	.	.	.	.	16ggg\	.
.	.	.	.	.	.	16eee\JJ)	.
8r	.	8r	.	8r	.	8ddd'\L	.
8GG'/	.	8c'/	.	8f#'/	.	(8ddd\J	.
4GG'/	.	4B'/	.	4g'/	.	(16eee\LL)	.
.	.	.	.	.	.	16ccc#\	.
.	.	.	.	.	.	16ddd\	.
.	.	.	.	.	.	16bb\JJ)	.
8r	.	8r	.	8r	.	8gg'\L	.
8GG/	.	8c/	.	8e/	.	[8gg\J	.
=105	=105	=105	=105	=105	=105	=105	=105
4GG/	.	4B/	.	4d/	.	(16gg\LL]	.
.	.	.	.	.	.	16ff#\	.
.	.	.	.	.	.	16gg\	.
.	.	.	.	.	.	16ee\JJ)	.
8r	.	8r	.	8r	.	8dd'\L	.
8GG/	.	8F#/	.	8c/	.	[8dd\J	.
4GG/	.	4G/	.	4B/	.	(16dd\LL]	.
.	.	.	.	.	.	16cc#\	.
.	.	.	.	.	.	16dd\	.
.	.	.	.	.	.	16b\JJ)	.
8r	.	8r	.	8r	.	8g/L	.
8GG/	.	8E/	.	8c/	.	8g/J	.
=106	=106	=106	=106	=106	=106	=106	=106
8GG/	.	8D/	.	8B/	.	8fn/	.
8r	.	8r	.	8r	.	8r	.
4r	.	4r	.	8G/	p	4r	.
.	.	.	.	8r	.	.	.
2r	.	4r	.	[2A-/	.	2r	.
.	.	8e'\	p	.	.	.	.
.	.	8r	.	.	.	.	.
=107	=107	=107	=107	=107	=107	=107	=107
1r	.	2.f\	.	4A-/]	.	1r	.
.	.	.	.	8G/	.	.	.
.	.	.	.	8r	.	.	.
.	.	.	.	[2A-/	.	.	.
.	.	8e'\	.	.	.	.	.
.	.	8r	.	.	.	.	.
=108	=108	=108	=108	=108	=108	=108	=108
1r	.	[1f	.	4A-/]	.	2r	.
.	.	.	.	8A-'/	.	.	.
.	.	.	.	8r	.	.	.
.	.	.	.	8An'/	.	4r	.
.	.	.	.	8r	.	.	.
.	.	.	.	8A#'/	.	8c#'/	p
.	.	.	.	8r	.	8r	.
=109	=109	=109	=109	=109	=109	=109	=109
2r	.	2.f\]	.	8B'/	.	8d'/	.
.	.	.	.	8r	.	8r	.
.	.	.	.	8A#'/	.	8c#'/	.
.	.	.	.	8r	.	8r	.
4r	.	.	.	8B'/	.	8d'/	.
.	.	.	.	8r	.	8r	.
8C'/	p	8G'/	.	8cn'/	.	8e'/	.
8r	.	8r	.	8r	.	8r	.
=110:|!	=110:|!	=110:|!	=110:|!	=110:|!	=110:|!	=110:|!	=110:|!
*>C	*>C	*>C	*>C	*>C	*>C	*>C	*>C
8GG/	.	8D/	.	8B/	.	8fn/	.
8r	.	8r	.	8r	.	8r	.
4r	.	4r	.	8G'/	p	4r	.
.	.	.	.	8r	.	.	.
2r	.	4r	.	[2A-/	.	2r	.
.	.	8e'\	p	.	.	.	.
.	.	8r	.	.	.	.	.
=111	=111	=111	=111	=111	=111	=111	=111
1r	.	2.f\	.	4A-/]	.	1r	.
.	.	.	.	8G'/	.	.	.
.	.	.	.	8r	.	.	.
.	.	.	.	[2A-/	.	.	.
.	.	8e'\	.	.	.	.	.
.	.	8r	.	.	.	.	.
=112	=112	=112	=112	=112	=112	=112	=112
1r	.	[1f	.	4A-/]	.	2r	.
.	.	.	.	8A-'/	.	.	.
.	.	.	.	8r	.	.	.
.	.	.	.	[2An/	.	4r	.
.	.	.	.	.	.	8cc#'\	p
.	.	.	.	.	.	8r	.
=113	=113	=113	=113	=113	=113	=113	=113
2r	.	2.f\]	.	4A/]	.	2.dd\	.
.	.	.	.	8A'/	.	.	.
.	.	.	.	8r	.	.	.
4r	.	.	.	[2B-/	.	.	.
8BB-/	.	8f#\	.	.	.	8dd\	.
8r	.	8r	.	.	.	8r	.
=114	=114	=114	=114	=114	=114	=114	=114
8BB-/	.	8g\	.	8B-/]	.	8ee-\	.
8r	.	8r	.	8r	.	8r	.
8G\	.	8c#\	.	8b-/	.	8een\	.
8r	.	8r	.	8r	.	8r	.
8F\	.	8d\	.	8a-/	.	8ff\	.
8r	.	8r	.	8r	.	8r	.
8E-\	.	8e-\	.	8g/	.	8gg\	.
8r	.	8r	.	8r	.	8r	.
=115	=115	=115	=115	=115	=115	=115	=115
2.D\	p	2.f\	p	2.b-\	p	2.aa-\	p
4r	.	4r	.	4r	.	8ddd'\L	.
.	.	.	.	.	.	16r	.
.	.	.	.	.	.	16eee-'\Jk	.
=116	=116	=116	=116	=116	=116	=116	=116
1r	.	1r	.	1r	.	(8ggg\L	.
.	.	.	.	.	.	8fff\J)	.
.	.	.	.	.	.	8ddd'\L	.
.	.	.	.	.	.	16r	.
.	.	.	.	.	.	16eee-'\Jk	.
.	.	.	.	.	.	(8eee-\L	.
.	.	.	.	.	.	8ddd\J)	.
.	.	.	.	.	.	8bb-'\L	.
.	.	.	.	.	.	16r	.
.	.	.	.	.	.	16ccc'\Jk	.
=117	=117	=117	=117	=117	=117	=117	=117
1r	.	1r	.	1r	.	(8ccc\L	.
.	.	.	.	.	.	8bb-\J)	.
.	.	.	.	.	.	8gg'\L	.
.	.	.	.	.	.	16r	.
.	.	.	.	.	.	16aa-'\Jk	.
.	.	.	.	.	.	(8aa-'\L	.
.	.	.	.	.	.	8gg'\	.
.	.	.	.	.	.	8ff'\	.
.	.	.	.	.	.	8ee-'\J)	.
=118	=118	=118	=118	=118	=118	=118	=118
1r	.	1r	.	1r	.	(8dd'\L	.
.	.	.	.	.	.	8cc'\	.
.	.	.	.	.	.	8b-'\	.
.	.	.	.	.	.	8a-'\J)	.
.	.	.	.	.	.	(8g'/L	.
.	.	.	.	.	.	8f'/	.
.	.	.	.	.	.	8e-'/	.
.	.	.	.	.	.	8d'/J)	.
=119	=119	=119	=119	=119	=119	=119	=119
1r	.	1r	.	1r	.	(8c/L	.
.	.	.	.	.	.	8B-'/	.
.	.	.	.	.	.	8An'/	.
.	.	.	.	.	.	8B-'/J)	.
.	.	.	.	.	.	(8d'/L	.
.	.	.	.	.	.	8f'/)	.
.	.	.	.	.	.	8b-'/	.
.	.	.	.	.	.	&(8dd/J&)	.
=120	=120	=120	=120	=120	=120	=120	=120
1r	.	1r	.	1r	.	(8ff'\L	.
.	.	.	.	.	.	8gg'\	.
.	.	.	.	.	.	8aa-'\	.
.	.	.	.	.	.	8ff'\J)	.
.	.	.	.	.	.	(8dd'\L	.
.	.	.	.	.	.	8b-'\	.
.	.	.	.	.	.	8cc'\	.
.	.	.	.	.	.	8f'\J)	.
=121	=121	=121	=121	=121	=121	=121	=121
2r	.	4r	.	4r	.	(2a-/	.
.	.	(4d\	.	(4f/	.	.	.
4r	.	8e-\)	.	8B-/)	.	4g/)	.
.	.	8r	.	8r	.	.	.
8E-'\	p	8G'/	.	8e-'/	.	4r	.
8r	.	8r	.	8r	.	.	.
=122	=122	=122	=122	=122	=122	=122	=122
2.D\	.	2.A-/	.	2.f/	.	4r	.
.	.	.	.	.	.	8ff\	.
.	.	.	.	.	.	8r	.
.	.	.	.	.	.	[2b-\	.
8E-'\	.	8G'/	.	8e-'/	.	.	.
8r	.	8r	.	8r	.	.	.
=123	=123	=123	=123	=123	=123	=123	=123
2.D\	.	2.A-/	.	2.f/	.	4b-\]	.
.	.	.	.	.	.	8ff\	.
.	.	.	.	.	.	8r	.
.	.	.	.	.	.	[2b-\	.
8F'\L	.	8A-'/L	.	8d'/L	.	.	.
16r	.	16r	.	16r	.	.	.
16E-\Jk	.	16G'/Jk	.	16e-'/Jk	.	.	.
=124	=124	=124	=124	=124	=124	=124	=124
(8C#/L	.	(8En/L	.	(8g/L	.	2.b-\]	.
8D/J)	.	8F/J)	.	8f/J)	.	.	.
8D'/L	.	8F'/L	.	8d'/L	.	.	.
16r	.	16r	.	16r	.	.	.
16Cn'/Jk	.	16E-'/Jk	.	16e-'/Jk	.	.	.
(8AA/L	.	(8C/L	.	(8e-/L	.	.	.
8BB-/J)	.	8D/J)	.	8d/J)	.	.	.
4r	.	4r	.	4r	.	8b-\L	.
.	.	.	.	.	.	16r	.
.	.	.	.	.	.	16cc'\Jk	.
=125	=125	=125	=125	=125	=125	=125	=125
2r	.	2r	.	2r	.	(8cc\L	.
.	.	.	.	.	.	8b-\J)	.
.	.	.	.	.	.	8g'/L	.
.	.	.	.	.	.	16r	.
.	.	.	.	.	.	16a-'/Jk	.
4r	.	4r	.	4r	.	(8a-/L	.
.	.	.	.	.	.	8g/J)	.
8f'\L	.	8a-'\L	.	8dd'\L	.	[4b-/	.
16r	.	16r	.	16r	.	.	.
16e-'\Jk	.	16g'\Jk	.	16ee-'\Jk	.	.	.
=126	=126	=126	=126	=126	=126	=126	=126
(8c#\L	.	(8en\L	.	(8gg\L	.	2.b-/]	.
8d\J)	.	8f\J)	.	8ff\J)	.	.	.
8d'\L	.	8f'\L	.	8dd\L	.	.	.
16r	.	16r	.	16r	.	.	.
16cn'\Jk	.	16e-'\Jk	.	16ee-'\Jk	.	.	.
(8A\L	.	(8c\L	.	(8ee-\L	.	.	.
8B-\J)	.	8d\J)	.	8dd\J)	.	.	.
4r	.	4r	.	4r	.	8bb-'\L	.
.	.	.	.	.	.	16r	.
.	.	.	.	.	.	16ccc'\Jk	.
=127	=127	=127	=127	=127	=127	=127	=127
1r	.	2r	.	4r	.	(8ccc\L	.
.	.	.	.	.	.	8bb-\J)	.
.	.	.	.	8b-'\L	.	8gg'\L	.
.	.	.	.	16r	.	16r	.
.	.	.	.	16cc'\Jk	.	16aa-'\Jk	.
.	.	4r	.	(8cc\L	.	(8aa-\L	.
.	.	.	.	8b-\J)	.	8gg\J)	.
.	.	8b-'\L	.	8g'/L	.	8een'\L	.
.	.	16r	.	16r	.	16r	.
.	.	16cc'\Jk	.	16a-'/Jk	.	16ff'\Jk	.
=128	=128	=128	=128	=128	=128	=128	=128
4r	.	(8cc\L	.	(8a-/L	.	(8ff\L	.
.	.	8b-\J)	.	8g/J)	.	8ee'\J)	.
8C'/L	.	4r	.	4r	.	4r	.
16r	.	.	.	.	.	.	.
16BBn'/Jk	.	.	.	.	.	.	.
(8BB/L	.	4r	.	4r	.	4r	.
8C/J)	.	.	.	.	.	.	.
4r	.	8b-'\L	.	8g'/L	.	8ee'\L	.
.	.	16r	.	16r	.	16r	.
.	.	16cc'\Jk	.	16a-'/Jk	.	16ff'\Jk	.
=129	=129	=129	=129	=129	=129	=129	=129
4r	.	(8cc\L	.	(8a-/L	.	(8ff\L	.
.	.	[8b-\J)	.	[8g/J)	.	[8ee\J)	.
8C'/L	pp	2.b-\_	pp	2.g/_	pp	2.ee\_	pp
16r	.	.	.	.	.	.	.
16BB'/Jk	.	.	.	.	.	.	.
(8BB/L	.	.	.	.	.	.	.
8C/J)	.	.	.	.	.	.	.
8C'/L	.	.	.	.	.	.	.
16r	.	.	.	.	.	.	.
16BB'/Jk	.	.	.	.	.	.	.
=130	=130	=130	=130	=130	=130	=130	=130
(8BB/L	.	(2.b-\]	.	2.g/]	.	1ee_	.
8C/J)	.	.	.	.	.	.	.
8C'/L	.	.	.	.	.	.	.
16r	.	.	.	.	.	.	.
16BB/Jk	.	.	.	.	.	.	.
(8BB/L	.	.	.	.	.	.	.
8C/J)	.	.	.	.	.	.	.
8C'/L	.	[4g\)	.	(4b-/	.	.	.
16r	.	.	.	.	.	.	.
16BB'/Jk	.	.	.	.	.	.	.
=131	=131	=131	=131	=131	=131	=131	=131
8BB/L	.	2.g\]	.	2.bn/)	.	2.ee\]	.
8BB/	.	.	.	.	.	.	.
8BB/	.	.	.	.	.	.	.
8BB/J	.	.	.	.	.	.	.
8BB/L	.	.	.	.	.	.	.
8BB/	.	.	.	.	.	.	.
8BB/	.	8g'\	.	8b'/	.	8ee'\	.
8BB/J	.	8r	.	8r	.	8r	.
=132	=132	=132	=132	=132	=132	=132	=132
8BB/L	.	(2f#\	.	(2an/	.	(2dd#\	.
8BB/	.	.	.	.	.	.	.
8BB/	.	.	.	.	.	.	.
8BB/J	.	.	.	.	.	.	.
8BB/L	.	2e\	.	2g/	.	2ee\	.
8BB/	.	.	.	.	.	.	.
8BB/	.	.	.	.	.	.	.
8BB/J	.	.	.	.	.	.	.
=133	=133	=133	=133	=133	=133	=133	=133
8BB/L	.	2d#\	.	2f#/	.	2a/	.
8BB/	.	.	.	.	.	.	.
8BB/	.	.	.	.	.	.	.
8BB/J	.	.	.	.	.	.	.
8BB/L	.	2B/	.	2e/	.	2g/	.
8BB/	.	.	.	.	.	.	.
8BB/	.	.	.	.	.	.	.
8BB/J	.	.	.	.	.	.	.
=134	=134	=134	=134	=134	=134	=134	=134
8BB/L	.	2A/	.	2c/	.	2f#/	.
8BB/	.	.	.	.	.	.	.
8BB/	.	.	.	.	.	.	.
8BB/J	.	.	.	.	.	.	.
8BB/L	.	2G/)	.	2A#/)	.	2e/)	.
8BB/	.	.	.	.	.	.	.
8BB/	.	.	.	.	.	.	.
8BB/J	.	.	.	.	.	.	.
=135	=135	=135	=135	=135	=135	=135	=135
8BB/L	.	1F#	.	[1B	.	1d#	.
8BB/	.	.	.	.	.	.	.
8BB/	.	.	.	.	.	.	.
8BB/J	.	.	.	.	.	.	.
8BB/L	.	.	.	.	.	.	.
8BB/	.	.	.	.	.	.	.
8BB/	.	.	.	.	.	.	.
8BB/J	.	.	.	.	.	.	.
=136	=136	=136	=136	=136	=136	=136	=136
8BB/L	.	1G	.	2B/]	.	1e	.
8BB/	.	.	.	.	.	.	.
8BB/	.	.	.	.	.	.	.
8BB/J	.	.	.	.	.	.	.
8BB-/L	.	.	.	2c/	.	.	.
8BB-/	.	.	.	.	.	.	.
8BB-/	.	.	.	.	.	.	.
8BB-/J	.	.	.	.	.	.	.
=137	=137	=137	=137	=137	=137	=137	=137
8AA/L	f	16A/LL	f	16f/LL	f	2.f/	.
.	.	16C/	.	16c/	.	.	.
8AA/	.	16C/	.	16c/	.	.	.
.	.	16C/JJ	.	16c/JJ	.	.	.
8AA/	.	16C/LL	.	16c/LL	.	.	.
.	.	16C/	.	16c/	.	.	.
8AA/J	.	16C/	.	16c/	.	.	.
.	.	16C/JJ	.	16c/JJ	.	.	.
8AA/L	.	16C/LL	.	16c/LL	.	.	.
.	.	16C/	.	16c/	.	.	.
8AA/	.	16C/	.	16c/	.	.	.
.	.	16C/JJ	.	16c/JJ	.	.	.
8AA/	.	16C/LL	.	16c/LL	.	(16f/LL	.
.	.	16C/	.	16c/	.	16g/	.
8AA/J	.	16C/	.	16c/	.	16a/	.
.	.	16C/JJ	.	16c/JJ	.	16f/JJ)	.
=138	=138	=138	=138	=138	=138	=138	=138
8GG/L	.	16C/LL	f	16B-/ 16e/LL	.	(16b-/LL	.
.	.	16C/	.	16B-/ 16e/	.	16a/	.
8GG/	.	16C/	.	16B-/ 16e/	.	16g/	.
.	.	16C/JJ	.	16B-/ 16e/JJ	.	16f/JJ	.
8GG/	.	16C/LL	.	16B-/ 16e/LL	.	16e/LL	.
.	.	16C/	.	16B-/ 16e/	.	16f/	.
8GG/J	.	16C/	.	16B-/ 16e/	.	16g/	.
.	.	16C/JJ	.	16B-/ 16e/JJ	.	16a/JJ)	.
8GG/L	.	16c\LL	.	16B-/ 16e/LL	.	(16b-/LL	.
.	.	16c\	.	16B-/ 16e/	.	16a/	.
8GG/	.	16c\	.	16B-/ 16e/	.	16g/	.
.	.	16c\JJ	.	16B-/ 16e/JJ	.	16a/JJ	.
8GG/	.	16c\LL	.	16B-/ 16e/LL	.	16b-/LL	.
.	.	16c\	.	16B-/ 16e/	.	16cc/	.
8GG/J	.	16c\	.	16B-/ 16e/	.	16dd/	.
.	.	16c\JJ	.	16B-/ 16e/JJ	.	16ee/JJ)	.
=139	=139	=139	=139	=139	=139	=139	=139
4FF/	p	4c\	p	4A/ 4f/	p	(16ff\LL	p
.	.	.	.	.	.	16aa\	.
.	.	.	.	.	.	16gg\	.
.	.	.	.	.	.	16bb-\JJ	.
4r	.	4r	.	4r	.	16aa\LL	.
.	.	.	.	.	.	16ccc\	.
.	.	.	.	.	.	16bb-\	.
.	.	.	.	.	.	16ddd\JJ	.
8r	.	8r	.	8r	.	2ccc\)	.
8A\L	.	8c\L	.	8f/L	.	.	.
8A\	.	8c\	.	8f/	.	.	.
8A\J	.	8c\J	.	8f/J	.	.	.
=140	=140	=140	=140	=140	=140	=140	=140
4G\	.	4c\	.	4e/	.	(16bb-\LL	.
.	.	.	.	.	.	16ddd\	.
.	.	.	.	.	.	16ccc\	.
.	.	.	.	.	.	16aa\JJ	.
4r	.	4r	.	4r	.	16gg\LL	.
.	.	.	.	.	.	16bb-\	.
.	.	.	.	.	.	16aa\	.
.	.	.	.	.	.	16ff\JJ	.
8r	.	8r	.	8r	.	16ee\LL	.
.	.	.	.	.	.	16gg\	.
8C/L	.	8B-'/L	.	8G'/L	.	16ff\	.
.	.	.	.	.	.	16dd\JJ	.
8C/	.	(8B-/	.	(8G/	.	8cc\L	.
8C/J	.	8G/J)	.	8B-/J)	.	16dd\L	.
.	.	.	.	.	.	16ee\JJ)	.
=141	=141	=141	=141	=141	=141	=141	=141
4FF/	.	(16F/LL	.	4A/	.	4ff\	.
.	.	16A/	.	.	.	.	.
.	.	16G/	.	.	.	.	.
.	.	16B-/JJ	.	.	.	.	.
4r	.	16A/LL	.	4r	.	4r	.
.	.	16c/	.	.	.	.	.
.	.	16B-/	.	.	.	.	.
.	.	16d/JJ)	.	.	.	.	.
2r	.	2c/	.	(16d/LL	.	2r	.
.	.	.	.	16f#/	.	.	.
.	.	.	.	16e/	.	.	.
.	.	.	.	16g/JJ	.	.	.
.	.	.	.	16f#/LL	.	.	.
.	.	.	.	16a/	.	.	.
.	.	.	.	16f#/	.	.	.
.	.	.	.	16d/JJ)	.	.	.
=142	=142	=142	=142	=142	=142	=142	=142
1r	.	(16B-/LL	.	(16g/LL	.	4r	.
.	.	16d/	.	16b-/	.	.	.
.	.	16c/	.	16a/	.	.	.
.	.	16A/JJ	.	16cc/JJ	.	.	.
.	.	16G/LL	.	16b-/LL	.	(8gg\L	.
.	.	16B-/	.	16dd/	.	.	.
.	.	16A/	.	16cc/	.	8aa\J	.
.	.	16F/JJ	.	16a/JJ	.	.	.
.	.	16E/LL	.	16g/LL	.	8bb-\L	.
.	.	16G/	.	16b-/	.	.	.
.	.	16F/	.	16a/	.	8bbn\	.
.	.	16D/JJ	.	16fn/JJ	.	.	.
.	.	8C/L	.	8e/L	.	8ccc\	.
.	.	16D/L	.	16f/L	.	8bb-\J)	.
.	.	16E/JJ)	.	16g/JJ)	.	.	.
=143	=143	=143	=143	=143	=143	=143	=143
(16FF/LL	.	8F/	.	8a/	.	8aa\	.
16AA/	.	.	.	.	.	.	.
16GG/	.	8r	.	8r	.	8r	.
16BB-/JJ	.	.	.	.	.	.	.
16AA/LL	.	4r	.	4r	.	4r	.
16C/	.	.	.	.	.	.	.
16BB-/	.	.	.	.	.	.	.
16D/JJ)	.	.	.	.	.	.	.
8C/L	.	2r	.	2r	.	2r	.
8C/	.	.	.	.	.	.	.
8C/	.	.	.	.	.	.	.
8C/J	.	.	.	.	.	.	.
=144	=144	=144	=144	=144	=144	=144	=144
[1C	.	2r	.	2r	.	4r	.
.	.	.	.	.	.	8g#'/	p
.	.	.	.	.	.	8r	.
.	.	4r	.	4r	.	[2a/	.
.	.	8F#'/	p	8e-'/	p	.	.
.	.	8r	.	8r	.	.	.
=145	=145	=145	=145	=145	=145	=145	=145
1C_	.	(2G/	.	(2d/	.	4a/]	.
.	.	.	.	.	.	(4a/	.
.	.	2B-/)	.	2en/)	.	4cc/	.
.	.	.	.	.	.	8b-/L	.
.	.	.	.	.	.	8g/J)	.
=146	=146	=146	=146	=146	=146	=146	=146
1C_	.	(4A/	.	(2.f/	.	8f/	.
.	.	.	.	.	.	8r	.
.	.	2Fn/	.	.	.	8g#/	.
.	.	.	.	.	.	8r	.
.	.	.	.	.	.	[2a/	.
.	.	4F#/)	.	4e-/)	.	.	.
=147	=147	=147	=147	=147	=147	=147	=147
1C]	.	(2G/	.	(2d/	.	4a/]	.
.	.	.	.	.	.	(4a/	.
.	.	2B-/)	.	2en/)	.	4cc/	.
.	.	.	.	.	.	8b-/L	.
.	.	.	.	.	.	8g/J)	.
=148	=148	=148	=148	=148	=148	=148	=148
2.F\	.	8A/	.	8f/	.	16a/LL	.
.	.	.	.	.	.	16d/	.
.	.	8r	.	8r	.	16f/	.
.	.	.	.	.	.	16a/JJ	.
.	.	8G#'/	.	4r	.	16dd\LL	.
.	.	.	.	.	.	16f\	.
.	.	8r	.	.	.	16a\	.
.	.	.	.	.	.	16dd\JJ	.
.	.	[2A/	.	2r	.	16ff\LL	.
.	.	.	.	.	.	16a\	.
.	.	.	.	.	.	16dd\	.
.	.	.	.	.	.	16ff\JJ	.
8D'\	.	.	.	.	.	16aa\LL	.
.	.	.	.	.	.	16dd\	.
8r	.	.	.	.	.	16ff\	.
.	.	.	.	.	.	16aa\JJ	.
=149	=149	=149	=149	=149	=149	=149	=149
2.C#/	.	8A/]	.	16r	.	8gg\	.
.	.	.	.	16ee\LL	.	.	.
.	.	8r	.	16cc#\	.	8r	.
.	.	.	.	16a\JJ	.	.	.
.	.	8G#'/	.	16ee\LL	.	4r	.
.	.	.	.	16cc#\	.	.	.
.	.	8r	.	16a\	.	.	.
.	.	.	.	16e\JJ	.	.	.
.	.	[2A/	.	16a/LL	.	2r	.
.	.	.	.	16e/	.	.	.
.	.	.	.	16c#/	.	.	.
.	.	.	.	16e/JJ	.	.	.
8C#'/	.	.	.	16A/LL	.	.	.
.	.	.	.	16c#/	.	.	.
8r	.	.	.	16e/	.	.	.
.	.	.	.	16g/JJ	.	.	.
=150	=150	=150	=150	=150	=150	=150	=150
2.D\	.	4A/]	.	4f/	.	16r	.
.	.	.	.	.	.	16d/LL	.
.	.	.	.	.	.	16f/	.
.	.	.	.	.	.	16a/JJ	.
.	.	8G#'/	.	4r	.	16dd/LL	.
.	.	.	.	.	.	16f/	.
.	.	8r	.	.	.	16a/	.
.	.	.	.	.	.	16dd/JJ	.
.	.	[2A/	.	2r	.	16ff\LL	.
.	.	.	.	.	.	16a\	.
.	.	.	.	.	.	16dd\	.
.	.	.	.	.	.	16ff\JJ	.
8D'\	.	.	.	.	.	16aa\LL	.
.	.	.	.	.	.	16dd\	.
8r	.	.	.	.	.	16ff\	.
.	.	.	.	.	.	16aa\JJ	.
=151	=151	=151	=151	=151	=151	=151	=151
2.BB/	.	4A/]	.	16r	.	4ddd\	.
.	.	.	.	16d/LL	.	.	.
.	.	.	.	16g/	.	.	.
.	.	.	.	16b/JJ	.	.	.
.	.	8F#'/	.	16dd/LL	.	4r	.
.	.	.	.	16b/	.	.	.
.	.	8r	.	16g/	.	.	.
.	.	.	.	16d/JJ	.	.	.
.	.	[2Gn/	.	16g/LL	.	2r	.
.	.	.	.	16d/	.	.	.
.	.	.	.	16B/	.	.	.
.	.	.	.	16d/JJ	.	.	.
8BB'/	.	.	.	16G/LL	.	.	.
.	.	.	.	16B/	.	.	.
8r	.	.	.	16d/	.	.	.
.	.	.	.	16f/JJ	.	.	.
=152	=152	=152	=152	=152	=152	=152	=152
4C/	f	16G/LL]	f	8e-/	f	2r	.
.	.	16C/	.	.	.	.	.
.	.	16E-/	.	8r	.	.	.
.	.	16G/JJ	.	.	.	.	.
4r	.	16c/LL	.	8ff#'\	.	.	.
.	.	16E-/	.	.	.	.	.
.	.	16G/	.	8r	.	.	.
.	.	16c/JJ	.	.	.	.	.
2r	.	16e-/LL	.	[2gg\	.	4r	.
.	.	16G/	.	.	.	.	.
.	.	16c/	.	.	.	.	.
.	.	16e-/JJ	.	.	.	.	.
.	.	16g\LL	.	.	.	8cc'\	f
.	.	16c\	.	.	.	.	.
.	.	16e-\	.	.	.	8r	.
.	.	16g\JJ	.	.	.	.	.
=153	=153	=153	=153	=153	=153	=153	=153
16r	.	8f\	.	4gg\]	.	2.b\	.
16G\LL	.	.	.	.	.	.	.
16B\	.	8r	.	.	.	.	.
16d\JJ	.	.	.	.	.	.	.
16f\LL	.	4r	.	8ff#'\	.	.	.
16d\	.	.	.	.	.	.	.
16B\	.	.	.	8r	.	.	.
16G\JJ	.	.	.	.	.	.	.
16F\LL	.	2r	.	[2gg\	.	.	.
16D\	.	.	.	.	.	.	.
16BB\	.	.	.	.	.	.	.
16D\JJ	.	.	.	.	.	.	.
16GG/LL	.	.	.	.	.	8b'\	.
16BB/	.	.	.	.	.	.	.
16D/	.	.	.	.	.	8r	.
16F/JJ	.	.	.	.	.	.	.
=154	=154	=154	=154	=154	=154	=154	=154
8E-\	.	4r	.	4gg\]	.	4cc\	.
8r	.	.	.	.	.	.	.
4C'/	ff	4E-'/	ff	4r	.	4r	.
[2c\	.	[2e-\	.	4r	.	4r	.
.	.	.	.	4cc'\	ff	4ee-'\	ff
=155	=155	=155	=155	=155	=155	=155	=155
4c\]	.	4e-\]	.	2.ccc\	.	2.eee-\	.
4AA-'/	.	4C'/	.	.	.	.	.
([2A-\	.	2c\	.	.	.	.	.
.	.	.	.	4a-'/	.	4cc'\	.
=156	=156	=156	=156	=156	=156	=156	=156
4A-\])	.	4c\	.	2.aa-\	.	2.ccc\	.
4FF'/	.	4C'/	.	.	.	.	.
[2F\	.	[2A-/	.	.	.	.	.
.	.	.	.	4f'/	.	4a-'/	.
=157	=157	=157	=157	=157	=157	=157	=157
4F\]	.	4A-/]	.	2.ff\	.	2.aa-\	.
4D-'/	.	4F'/	.	.	.	.	.
[2AA-/	.	[2D-/	.	.	.	.	.
.	.	.	.	4dd-'\	.	4ff'\	.
=158	=158	=158	=158	=158	=158	=158	=158
4AA-/]	.	4D-/]	.	2.a-/	.	2.dd-\	.
4D-'\	.	4F'/	.	.	.	.	.
[2F\	.	[2A-/	.	.	.	.	.
.	.	.	.	4f'/	.	4a-'/	.
=159	=159	=159	=159	=159	=159	=159	=159
4F\]	.	4A-/]	.	2.d-/	p	2.f/	p
4D-'\	p	4F'/	p	.	.	.	.
[2AA-/	.	[2D-/	.	.	.	.	.
.	.	.	.	4A-'/	.	4d-'/	.
=160	=160	=160	=160	=160	=160	=160	=160
4AA-/]	.	4D-/]	.	2.d-/	.	2.f/	.
4D-'\	.	4F'/	.	.	.	.	.
[2F\	.	[2A-/	.	.	.	.	.
.	.	.	.	4f'/	.	4a-'/	.
=161	=161	=161	=161	=161	=161	=161	=161
4F\]	.	4A-/]	.	2.e-/	.	2.g-'/	.
4E-\	.	4G-'/	.	.	.	.	.
[2D-\	.	[2F/	.	.	.	.	.
.	.	.	.	4d-'/	.	4f'/	.
=162	=162	=162	=162	=162	=162	=162	=162
4D-\]	.	4F/]	.	2.c/	.	2.e-/	.
4C'/	.	4E-'/	.	.	.	.	.
[2G-\	.	[2B-/	.	.	.	.	.
.	.	.	.	4g-'/	.	4b-'/	.
=163	=163	=163	=163	=163	=163	=163	=163
4G-\]	.	4B-/]	.	2.f/	.	2.a-/	.
4F'\	.	4A-'/	.	.	.	.	.
[2E-\	.	[2G-/	.	.	.	.	.
.	.	.	.	4e-'/	.	4g-'/	.
=164	=164	=164	=164	=164	=164	=164	=164
4E-\]	.	4G-/]	.	2.d-/	.	2.f/	.
4D-'/	.	4F'/	.	.	.	.	.
[2C/	.	[2E-/	.	.	.	.	.
.	.	.	.	4c'/	.	4e-'/	.
=165	=165	=165	=165	=165	=165	=165	=165
4C/]	.	4E-/]	.	2.Bn/	.	2.dn/	.
4BBn'/	.	4Dn'/	.	.	.	.	.
[2F\	.	[2A-/	.	.	.	.	.
.	.	.	.	4f'/	.	4a-'/	.
=166	=166	=166	=166	=166	=166	=166	=166
4F\]	.	4A-/]	.	2.e-/	.	2.gn/	.
4E-'\	.	4Gn'/	.	.	.	.	.
[2Dn\	.	[2F/	.	.	.	.	.
.	.	.	.	4dn'/	.	4f'/	.
=167	=167	=167	=167	=167	=167	=167	=167
4D\]	.	4F/]	.	2.c/	.	2.e-/	.
4C'/	.	4E-'/	.	.	.	.	.
[2c\	.	(2e-\	.	.	.	.	.
.	.	.	.	4c'/	.	4g'/	.
=168	=168	=168	=168	=168	=168	=168	=168
4c\]	.	4e-\	.	2.c/	pp	2.f#/	pp
4A-'\	pp	4c'\)	pp	.	.	.	.
[2AA-/	.	[2C/	.	.	.	.	.
.	.	.	.	4f#'/	.	4dd'\	.
=169	=169	=169	=169	=169	=169	=169	=169
4AA-/]	.	4C/]	.	2.g/	.	2.dd\	.
4GG'/	.	4D'/	.	.	.	.	.
[2G\	.	[2B/	.	.	.	.	.
.	.	.	.	4d'/	.	4g'/	.
=170	=170	=170	=170	=170	=170	=170	=170
4G\]	.	4B/]	.	2.d/	.	2.f#/	.
4A-'\	.	4c'/	.	.	.	.	.
[2AA-/	.	[2C/	.	.	.	.	.
.	.	.	.	4f#'/	.	4dd'\	.
=171	=171	=171	=171	=171	=171	=171	=171
8AA-/]	.	8C/]	.	4.g/	.	4.dd\	.
8GG/	.	8D/	.	.	.	.	.
4.G\	.	4.B/	.	.	.	.	.
.	.	.	.	8d/	.	8g/	.
.	.	.	.	4.d/	.	4.f#/	.
8A-\	.	8c/	.	.	.	.	.
[4AA-/	.	[4C/	.	.	.	.	.
.	.	.	.	8f#/	.	8dd\	.
=172	=172	=172	=172	=172	=172	=172	=172
8AA-/]	.	8C/]	.	4.g/	.	4.dd\	.
8GG/	.	8D'/	.	.	.	.	.
4.G\	.	4.B/	.	.	.	.	.
.	.	.	.	8G/	.	8g/	.
.	.	.	.	4.G/	.	4.g/	.
8An\	.	8c/	.	.	.	.	.
[4AAn/	.	[4C/	.	.	.	.	.
.	.	.	.	8g/	.	8gg\	.
=173	=173	=173	=173	=173	=173	=173	=173
8AA/]	.	8C/]	.	4.g/	.	4.gg\	.
8AA#/	.	8C#/	.	.	.	.	.
4.A#\	.	4.c#\	.	.	.	.	.
.	.	.	.	8G/	.	8g/	.
.	.	.	.	4.G/	.	4.g/	.
8B\	.	8d\	.	.	.	.	.
[4BB/	.	[4D/	.	.	.	.	.
.	.	.	.	8g/	.	8gg\	.
=174	=174	=174	=174	=174	=174	=174	=174
8BB/]	.	8D/]	.	4.g/	.	4.gg\	.
8C/	.	8E-/	.	.	.	.	.
4.c\	.	4.e-\	.	.	.	.	.
.	.	.	.	8G/	.	8g/	.
.	.	.	.	4.G/	.	4.g/	.
8c#\	.	8en\	.	.	.	.	.
[4C#/	.	[4En/	.	.	.	.	.
.	.	.	.	8g/	.	8gg\	.
=175	=175	=175	=175	=175	=175	=175	=175
8C#/]	.	8E/]	.	4.g/	ff	4.gg\	ff
8D\	ff	8F/	ff	.	.	.	.
4.d\	.	4.f\	.	.	.	.	.
.	.	.	.	8G/	.	8g/	.
.	.	.	.	4.g/	.	4.gg\	.
8D\	.	8F/	.	.	.	.	.
[4d\	.	[4f\	.	.	.	.	.
.	.	.	.	8G/	.	8g/	.
=176	=176	=176	=176	=176	=176	=176	=176
8d\]	.	8f\]	.	4.g/	.	4.gg\	.
8D\	.	8F/	.	.	.	.	.
4.d\	.	4.f\	.	.	.	.	.
.	.	.	.	8G/	.	8g/	.
.	.	.	.	4.g/	.	4.gg\	.
8D\	.	8F/	.	.	.	.	.
4d\	.	4f\	.	.	.	.	.
.	.	.	.	8G/	.	8g/	.
=177	=177	=177	=177	=177	=177	=177	=177
4d\	f	4f\	f	4B/	f	[1g	f
4r	.	4r	.	4r	.	.	.
2r	.	2r	.	2r	.	.	.
=178	=178	=178	=178	=178	=178	=178	=178
1r	.	1r	.	1r	.	1g]	.
=179	=179	=179	=179	=179	=179	=179	=179
4BB/	p	4d\	p	4G/ 4f/	p	[1g	p
4r	.	4r	.	4r	.	.	.
2r	.	2r	.	2r	.	.	.
=180	=180	=180	=180	=180	=180	=180	=180
1r	.	1r	.	2r	.	1g_	.
.	.	.	.	4r	.	.	.
.	.	.	.	(4e/	pp	.	.
=181	=181	=181	=181	=181	=181	=181	=181
2r	.	4r	.	[1f)	.	2.g/]	.
.	.	(4c#\	pp	.	.	.	.
4r	.	[2d\)	.	.	.	.	.
(4A#\	pp	.	.	.	.	(16dd\LL	.
.	.	.	.	.	.	16ee\	.
.	.	.	.	.	.	16ff\	.
.	.	.	.	.	.	16ee\JJ	.
=182	=182	=182	=182	=182	=182	=182	=182
[1B)	.	1d_	.	1f_	.	16gg\LL	.
.	.	.	.	.	.	16ff\	.
.	.	.	.	.	.	16ee\	.
.	.	.	.	.	.	16ff\JJ)	.
.	.	.	.	.	.	(16b\LL	.
.	.	.	.	.	.	16cc\	.
.	.	.	.	.	.	16dd\	.
.	.	.	.	.	.	16cc#\JJ	.
.	.	.	.	.	.	16ee\LL	.
.	.	.	.	.	.	16dd\	.
.	.	.	.	.	.	16cc#\	.
.	.	.	.	.	.	16dd\JJ)	.
.	.	.	.	.	.	(16f/LL	.
.	.	.	.	.	.	16g/	.
.	.	.	.	.	.	16a/	.
.	.	.	.	.	.	16g#/JJ)	.
=183	=183	=183	=183	=183	=183	=183	=183
4B\]	.	4d\]	.	4f/]	.	(16b/LL	.
.	.	.	.	.	.	16a/	.
.	.	.	.	.	.	16gn/	.
.	.	.	.	.	.	16f/JJ	.
4r	.	4r	.	4r	.	16e/LL	.
.	.	.	.	.	.	16d/	.
.	.	.	.	.	.	16f/	.
.	.	.	.	.	.	16d/JJ	.
2r	.	2r	.	2r	.	16c/LL	.
.	.	.	.	.	.	16B/	.
.	.	.	.	.	.	16d/	.
.	.	.	.	.	.	16B/JJ)	.
.	.	.	.	.	.	(12G/L	.
.	.	.	.	.	.	12B/	.
.	.	.	.	.	.	12d/J	.
=184	=184	=184	=184	=184	=184	=184	=184
1r	.	1r	.	1r	.	12f/L	.
.	.	.	.	.	.	12g/	.
.	.	.	.	.	.	12b/J	.
.	.	.	.	.	.	12dd\L	.
.	.	.	.	.	.	12ff\	.
.	.	.	.	.	.	12gg\J	.
.	.	.	.	.	.	12bb\L	.
.	.	.	.	.	.	12ddd\	.
.	.	.	.	.	.	12fff\J	.
.	.	.	.	.	.	12ddd\L	.
.	.	.	.	.	.	12bb\	.
.	.	.	.	.	.	12gg\J)	.
=185	=185	=185	=185	=185	=185	=185	=185
1r	.	1r	.	1r	.	(12ff\L	.
.	.	.	.	.	.	12dd\	.
.	.	.	.	.	.	12b\J	.
.	.	.	.	.	.	12g/L	.
.	.	.	.	.	.	12g#/	.
.	.	.	.	.	.	12a/J)	.
.	.	.	.	.	.	(12b/L	.
.	.	.	.	.	.	12a/)	.
.	.	.	.	.	.	(12gn'/J	.
.	.	.	.	.	.	12f'/L	.
.	.	.	.	.	.	12e'/	.
.	.	.	.	.	.	12d'/J)	.
=186	=186	=186	=186	=186	=186	=186	=186
4r	.	4r	.	4r	.	(2f/	.
8GG/	.	8B/	.	8d/	.	.	.
8r	.	8r	.	8r	.	.	.
8C/	.	8G/	.	8c/	.	16e/LL	.
.	.	.	.	.	.	16f/	.
8r	.	8r	.	8r	.	16g/	.
.	.	.	.	.	.	16g#/JJ)	.
4r	.	4r	.	4f#/	.	[4a/	.
=187	=187	=187	=187	=187	=187	=187	=187
2r	.	4r	.	[1g	pp	2.a/]	pp
.	.	(4d#\	pp	.	.	.	.
4r	.	[2e\)	.	.	.	.	.
(4B#\	pp	.	.	.	.	(16gg\LL	.
.	.	.	.	.	.	16aa\	.
.	.	.	.	.	.	16bb-\	.
.	.	.	.	.	.	16aa\JJ	.
=188	=188	=188	=188	=188	=188	=188	=188
[1c#)	.	1e_	.	1g_	.	16ccc\LL	.
.	.	.	.	.	.	16bb-\	.
.	.	.	.	.	.	16aa\	.
.	.	.	.	.	.	16bb-\JJ)	.
.	.	.	.	.	.	(16ee\LL	.
.	.	.	.	.	.	16ff\	.
.	.	.	.	.	.	16gg\	.
.	.	.	.	.	.	16ff#\JJ	.
.	.	.	.	.	.	16aa\LL	.
.	.	.	.	.	.	16gg\	.
.	.	.	.	.	.	16ff#\	.
.	.	.	.	.	.	16gg\JJ)	.
.	.	.	.	.	.	(16cc#\LL	.
.	.	.	.	.	.	16dd\	.
.	.	.	.	.	.	16ee\	.
.	.	.	.	.	.	16dd\JJ	.
=189	=189	=189	=189	=189	=189	=189	=189
4c#\]	.	4e\]	.	4g/]	.	16ff\LL	.
.	.	.	.	.	.	16ee\	.
.	.	.	.	.	.	16dd\	.
.	.	.	.	.	.	16cc#\JJ	.
4r	.	4r	.	4r	.	16b-/LL	.
.	.	.	.	.	.	16a/	.
.	.	.	.	.	.	16g/	.
.	.	.	.	.	.	16f/JJ	.
2r	.	2r	.	2r	.	16e/LL	.
.	.	.	.	.	.	16d/	.
.	.	.	.	.	.	16c#/	.
.	.	.	.	.	.	16B-/JJ)	.
.	.	.	.	.	.	(12A'/L	.
.	.	.	.	.	.	12c#'/	.
.	.	.	.	.	.	12e'/J)	.
=190	=190	=190	=190	=190	=190	=190	=190
1r	.	1r	.	1r	.	(12g'\L	.
.	.	.	.	.	.	12a'\	.
.	.	.	.	.	.	12cc#\J)	.
.	.	.	.	.	.	(12ee'\L	.
.	.	.	.	.	.	12gg'\	.
.	.	.	.	.	.	12aa'\J)	.
.	.	.	.	.	.	(12ccc#'\L	.
.	.	.	.	.	.	12eee'\	.
.	.	.	.	.	.	12ggg'\J)	.
.	.	.	.	.	.	(12eee'\L	.
.	.	.	.	.	.	12ccc#'\	.
.	.	.	.	.	.	12aa'\J)	.
=191	=191	=191	=191	=191	=191	=191	=191
1r	.	1r	.	1r	.	(12gg'\L	.
.	.	.	.	.	.	12bb-'\	.
.	.	.	.	.	.	12gg\J)	.
.	.	.	.	.	.	(12ee'\L	.
.	.	.	.	.	.	12cc#'\	.
.	.	.	.	.	.	12b-'\J)	.
.	.	.	.	.	.	(12a'/L	.
.	.	.	.	.	.	12g'/	.
.	.	.	.	.	.	(12a'/J)	.
.	.	.	.	.	.	12b-/L	.
.	.	.	.	.	.	12a/)	.
.	.	.	.	.	.	12e'/J	.
=192	=192	=192	=192	=192	=192	=192	=192
4r	.	4r	.	4r	.	(2g/	.
8AA/	.	8c#/	.	8e/	.	.	.
8r	.	8r	.	8r	.	.	.
8D\	.	8A/	.	8d/	.	16f/LL	.
.	.	.	.	.	.	16g/	.
8r	.	8r	.	8r	.	16g#/	.
.	.	.	.	.	.	16a/JJ)	.
4r	.	(4F#/	.	4r	.	[4b-/	.
=193	=193	=193	=193	=193	=193	=193	=193
1r	.	(4G/)	.	2.G/	.	1b-]	.
.	.	4D-/	.	.	.	.	.
.	.	4Dn/	.	.	.	.	.
.	.	4D/)	.	(4e/	.	.	.
=194	=194	=194	=194	=194	=194	=194	=194
4r	.	2.Dn/	.	2.f/)	.	1bn	.
(4AA-/	.	.	.	.	.	.	.
4GG/)	.	.	.	.	.	.	.
8GG'/	.	8d'\	.	8G'/ 8f'/	.	.	.
8r	.	8r	.	8r	.	.	.
=195	=195	=195	=195	=195	=195	=195	=195
*	*	*	*	*	*	*^	*
8CC/L	.	[2c/	f	[2G/ [2e/	f	[2cc/	4G/ 4e/	f
8C/	.	.	.	.	.	.	.	.
8C/	.	.	.	.	.	.	4ryy	.
8C/J	.	.	.	.	.	.	.	.
*	*	*	*	*	*	*v	*v	*
8C/L	.	8c/]	.	8G/] 8e/]	.	8cc\L]	.
8C/	.	(16E/LL	.	(16cc\LL	.	(16ccc\L	.
.	.	16F/JJ)	.	16dd\JJ)	.	16ddd\JJ)	.
8C/	.	8G'/L	.	8ee'\L	.	8eee'\L	.
8C/J	.	8E'/J	.	8cc'\J	.	8ccc'\J	.
=196	=196	=196	=196	=196	=196	=196	=196
8C/L	.	8F'/L	.	8a'/L	.	8aa\L	.
8CC/	.	(16F/L	.	(16a/L	.	(16aa\L	.
.	.	16G/JJ)	.	16b/JJ)	.	16bb\JJ)	.
8C/	.	8A'/L	.	8cc'/L	.	8ccc'\L	.
8C/J	.	8F'/J	.	8a'/J	.	8aa'\J	.
8C/L	.	8d'/L	.	8f'/L	.	8ff\L	.
8CC/	.	(16B/L	.	(16d/L	.	(16dd\L	.
.	.	16c/JJ)	.	16e/JJ)	.	16ee\JJ)	.
8C/	.	8d/L	.	8f'/L	.	8ff'\L	.
8C/J	.	8B/J	.	8d'/J	.	8dd'\J	.
=197	=197	=197	=197	=197	=197	=197	=197
8C/L	.	(8c/L	.	(8e/L	.	(8ee\L	.
8CC/	.	8G/J)	.	8g/J)	.	8gg\J)	.
8C/	.	[4E/	.	[4cc\	.	[4ccc\	.
8C/J	.	.	.	.	.	.	.
8C/L	.	(16E/LL]	.	(16cc\LL]	.	16ccc\LL]	.
.	.	16F/	.	16dd\	.	16ddd\	.
8C/	.	16E/	.	16cc\	.	16ccc\	.
.	.	16F/JJ)	.	16dd\JJ)	.	16ddd\JJ	.
8C/	.	8G'/L	.	8ee'\L	.	8eee'\L	.
8C/J	.	8E'/J	.	8cc'\J	.	8ccc'\J	.
=198	=198	=198	=198	=198	=198	=198	=198
8C/L	.	(16F/LL	.	(16a/LL	.	(16aa\LL	.
.	.	16G/	.	16b/	.	16bb\	.
8CC/	.	16F/	.	16a/	.	16aa\	.
.	.	16G/JJ)	.	16b/JJ)	.	16bb\JJ)	.
8C/	.	8A'/L	.	8cc'/L	.	8ccc'\L	.
8C/J	.	8F'/J	.	8a'/J	.	8aa'\J	.
8C/L	.	(16B/LL	.	(16d/LL	.	(16dd\LL	.
.	.	16c/	.	16e/	.	16ee\	.
8CC/	.	16B/	.	16d/	.	16dd\	.
.	.	16c/JJ)	.	16e/JJ)	.	16ee\JJ)	.
8C/	.	8d'/L	.	8f'/L	.	8ff'\L	.
8C/J	.	8B'/J	.	8d'/J	.	8dd'\J	.
=199	=199	=199	=199	=199	=199	=199	=199
8C/L	.	(16c/LL	.	(16e/LL	.	(16ee\LL	.
.	.	16G/	.	16g/	.	16gg\	.
8CC/	.	16c/	.	16e/	.	16ee\	.
.	.	16G/JJ)	.	16g/JJ)	.	16gg\JJ)	.
8C/	.	4E/	.	4cc\	.	4ccc\	.
8C/J	.	.	.	.	.	.	.
2AA/	.	(16c#\LL	.	(16e/LL	.	(16ee\LL	.
.	.	16d\	.	16f/	.	16ff\	.
.	.	16c#\	.	16e/	.	16ee\	.
.	.	16d\JJ)	.	16f/JJ)	.	16ff\JJ)	.
.	.	8e'\L	.	8g'/L	.	8gg'\L	.
.	.	8c#'\J	.	8e'/J	.	8ee'\J	.
=200	=200	=200	=200	=200	=200	=200	=200
8D/L	.	(16d/LL	.	(16f/LL	.	16ff\LL	.
.	.	16A/	.	16a/	.	16aa\	.
8DD/	.	16d/	.	16f/	.	16ff\	.
.	.	16A/JJ)	.	16a/JJ)	.	16aa\JJ	.
8D/	.	4F/	.	4dd\	.	4ddd\	.
8D/J	.	.	.	.	.	.	.
2AA/	.	(16c#\LL	.	(16e/LL	.	(16ee\LL	.
.	.	16d\	.	16f/	.	16ff\	.
.	.	16c#\	.	16e/	.	16ee\	.
.	.	16d\JJ)	.	16f/JJ)	.	16ff\JJ)	.
.	.	8e'\L	.	8g'/L	.	8gg'\L	.
.	.	8c#'\J	.	8e'/J	.	8ee'\J	.
=201	=201	=201	=201	=201	=201	=201	=201
8D/L	.	(16d/LL	.	(16f/LL	.	(16ff\LL	.
.	.	16A/	.	16a/	.	16aa\	.
8DD/	.	16d/	.	16f/	.	16ff\	.
.	.	16A/JJ)	.	16a/JJ)	.	16aa\JJ)	.
8D/	.	8F'/L	.	8dd'\L	.	8ddd'\L	.
8D/J	.	8F'/J	.	8dd'\J	.	8ddd'\J	.
(16d\LL	.	(16f\LL	.	(16dd\LL	.	(16bb\LL	.
16B\	.	16d\	.	16ff\	.	16ddd\	.
16d\	.	16f\	.	16dd\	.	16bb\	.
16B\JJ)	.	16d\JJ)	.	16ff\JJ)	.	16ddd\JJ)	.
8G'\L	.	8d'\L	.	8bb'\L	.	8fff'\L	.
8G'\J	.	8B'\J	.	8ddd'\J	.	8fff'\J	.
=202	=202	=202	=202	=202	=202	=202	=202
(16c\LL	.	(16e\LL	.	(16gg\LL	.	(16ccc\LL	.
16G\	.	16c\	.	16ccc\	.	16eee\	.
16c\	.	16e\	.	16gg\	.	16ccc\	.
16G\JJ)	.	16c\JJ)	.	16ccc\JJ)	.	16eee\JJ)	.
8E'\L	.	8G'\L	.	8eee'\L	.	8ggg'\L	.
(8c'\J	.	8g'\J	.	8eee'\J	.	8ggg'\J	.
16f\LL	.	(16a\LL	.	(16aa\LL	.	(16ccc\LL	.
16c\	.	16f\	.	16ccc\	.	16fff\	.
16f\	.	16a\	.	&(16aa\&)	.	16ccc\	.
16c\JJ)	.	16f\JJ)	.	16ccc\JJ)	.	16fff\JJ)	.
8A'\L	.	8c'\L	.	8fff'\L	.	8aaa'\L	.
8F'\J	.	8c'\J	.	8fff'\J	.	8aaa'\J	.
=203	=203	=203	=203	=203	=203	=203	=203
[2G\	.	(8c\L	.	[2eee\	.	[2ggg\	.
.	.	16d\L	.	.	.	.	.
.	.	16e\JJ	.	.	.	.	.
.	.	16f\LL	.	.	.	.	.
.	.	16g\	.	.	.	.	.
.	.	16a\	.	.	.	.	.
.	.	16b\JJ)	.	.	.	.	.
8G\L]	.	[2cc\	.	8eee\L]	.	8ggg\L]	.
(16A\L	.	.	.	(16ddd\L	.	(16fff\L	.
16B\JJ	.	.	.	16ccc\JJ	.	16eee\JJ	.
16c\LL	.	.	.	16bb\LL	.	16ddd\LL	.
16d\	.	.	.	16aa\	.	16ccc\	.
16e\	.	.	.	16gg\	.	16bb\	.
16f\JJ)	.	.	.	16ff\JJ)	.	16aa\JJ)	.
=204	=204	=204	=204	=204	=204	=204	=204
8g\L	.	8cc\L]	.	(4ee\	.	(4gg\	.
8G\	.	(8c\	.	.	.	.	.
8G\	.	8d\	.	8dd\L	.	8ff\L	.
8G\J	.	8e\J)	.	8cc\J)	.	8ee\J)	.
8G\L	.	(4e\	.	(4cc\	.	(4ee\	.
8G\	.	.	.	.	.	.	.
8G\	.	8d\L	.	8dd\L	.	8ff\L	.
8G\J	.	8f\J)	.	8b\J)	.	8dd\J)	.
=205	=205	=205	=205	=205	=205	=205	=205
(12c\L	.	(12e/L	.	(12cc\L	.	(12ee\L	.
12G\)	.	12c/)	.	12ee\)	.	12gg\)	.
12E'\J	.	12G'/J	.	12gg'\J	.	12ccc'\J	.
12E\L	.	12G/L	.	12gg\L	.	12ccc\L	.
12E\	.	12G/	.	12gg\	.	12ccc\	.
12E\J	.	12G/J	.	12gg\J	.	12ccc\J	.
(12G\L	.	(12c/L	.	(12ee\L	.	(12gg\L	.
12E\)	.	12G/)	.	12gg\)	.	12ccc\)	.
12C'\J	.	12E'/J	.	12ccc'\J	.	12eee'\J	.
12C/L	.	12E/L	.	12ccc\L	.	12eee\L	.
12C/	.	12E/	.	12ccc\	.	12eee\	.
12C/J	.	12E/J	.	12ccc\J	.	12eee\J	.
=206	=206	=206	=206	=206	=206	=206	=206
(12F/L	.	(12A/L	.	(12ff\L	.	(12aa\L	.
12C/)	.	12F/)	.	12aa\)	.	12ccc\)	.
12AA'/J	.	12C'/J	.	12ccc'\J	.	12fff'\J	.
12AA/L	.	12C/L	.	12ccc\L	.	12fff\L	.
12AA/	.	12C/	.	12ccc\	.	12fff\	.
12AA/J	.	12C/J	.	12ccc\J	.	12fff\J	.
(12C/L	.	(12F/L	.	(12aa\L	.	(12ccc\L	.
12AA/)	.	12C/)	.	12ccc\)	.	12fff\)	.
12FF'/J	.	12C'/J	.	12fff'\J	.	12aaa'\J	.
12FF/L	.	12C/L	.	12fff\L	.	12aaa\L	.
12FF/	.	12C/	.	12fff\	.	12aaa\	.
12FF/J	.	12C/J	.	12fff\J	.	12aaa\J	.
=207	=207	=207	=207	=207	=207	=207	=207
16GG\LL	.	16C/LL	.	[2eee\	.	[2ggg\	.
(16C\	.	(16E/	.	.	.	.	.
16D\	.	16F/	.	.	.	.	.
16E\JJ	.	16G/JJ	.	.	.	.	.
16F\LL	.	16A/LL	.	.	.	.	.
16G\	.	16B/	.	.	.	.	.
16A\	.	16c/	.	.	.	.	.
16B\JJ	.	16d/JJ)	.	.	.	.	.
16c\LL)	.	16e/LL	.	8eee\L]	.	8ggg\L]	.
(16E\	.	(16G/	.	.	.	.	.
16F\	.	16A/	.	(16ddd\L	.	(16fff\L	.
16G\JJ	.	16B/JJ	.	16ccc\JJ	.	16eee\JJ	.
16A\LL	.	16c/LL	.	16bb\LL	.	16ddd\LL	.
16B\	.	16d/	.	16aa\	.	16ccc\	.
16c\	.	16e/	.	16gg\	.	16bb\	.
16d\JJ)	.	16f/JJ)	.	16ff\JJ)	.	16aa\JJ)	.
=208	=208	=208	=208	=208	=208	=208	=208
8e\	.	8g\	.	8ee\	.	8gg\	.
8r	.	8r	.	8r	.	8r	.
4r	.	4r	.	4r	.	8ggg\	.
.	.	.	.	.	.	8r	.
2r	.	2r	.	2r	.	8eee\	.
.	.	.	.	.	.	8r	.
.	.	.	.	.	.	8cccc\	.
.	.	.	.	.	.	8r	.
=209	=209	=209	=209	=209	=209	=209	=209
[1g	.	2r	.	2r	.	8G/	.
.	.	.	.	.	.	8r	.
.	.	.	.	.	.	8dd#\	p
.	.	.	.	.	.	8r	.
.	.	4r	.	4r	.	[2ee\	.
.	.	8c#'\	p	8b-'\	p	.	.
.	.	8r	.	8r	.	.	.
=210	=210	=210	=210	=210	=210	=210	=210
1g]	.	(2d\	.	(2a/	.	(4ee\]	.
.	.	.	.	.	.	4ee\	.
.	.	2G/ 2f/)	.	2bn/)	.	4gg\	.
.	.	.	.	.	.	8ff\L	.
.	.	.	.	.	.	8dd\J)	.
=211	=211	=211	=211	=211	=211	=211	=211
[1g	.	2.cn\	.	2.e/ 2.cc/	.	8cc\	.
.	.	.	.	.	.	8r	.
.	.	.	.	.	.	8dd#\	.
.	.	.	.	.	.	8r	.
.	.	.	.	.	.	[2ee\	.
.	.	8c#\	.	8b-'\	.	.	.
.	.	8r	.	8r	.	.	.
=212	=212	=212	=212	=212	=212	=212	=212
1g_	.	(2d\	.	(2a/	.	(4ee\]	.
.	.	.	.	.	.	4ee\	.
.	.	2G\ 2f\)	.	2bn/)	.	4gg\	.
.	.	.	.	.	.	8ff\L	.
.	.	.	.	.	.	8dd\J)	.
=213	=213	=213	=213	=213	=213	=213	=213
2.g\]	.	2.c\	.	2.e/ 2.cc/	.	8ee\	.
.	.	.	.	.	.	8r	.
.	.	.	.	.	.	8ff#\	.
.	.	.	.	.	.	8r	.
.	.	.	.	.	.	[2gg\	.
8c'\	.	8e'\	.	(8e/L	.	.	.
8r	.	8r	.	8f#/J)	.	.	.
=214	=214	=214	=214	=214	=214	=214	=214
(2B\	.	(2d\	.	(4g/	.	(4gg\]	.
.	.	.	.	8d/L	.	8aa\L	.
.	.	.	.	8e/J	.	8gg\J	.
2A\	.	2c\	.	4fn/	.	4ffn\	.
.	.	.	.	8g/L	.	8gg\L	.
.	.	.	.	8a/J)	.	8ff\J)	.
=215	=215	=215	=215	=215	=215	=215	=215
2G\	.	2B/	.	(4b/	.	(4ee\	.
.	.	.	.	8B/L	.	8ff\L	.
.	.	.	.	8c/J	.	8ee\J	.
2F\)	.	2A/)	.	4d/	.	4dd\	.
.	.	.	.	8e/L	.	8ee\L	.
.	.	.	.	8f/J)	.	8dd\J)	.
=216	=216	=216	=216	=216	=216	=216	=216
(2E\	.	(4.B-/	.	(16g/LL	.	2cc#\	.
.	.	.	.	16b-/	.	.	.
.	.	.	.	16a/	.	.	.
.	.	.	.	16b-/JJ	.	.	.
.	.	.	.	16a/LL	.	.	.
.	.	.	.	16b-/	.	.	.
.	.	8G/	.	16a/	.	.	.
.	.	.	.	16b-/JJ)	.	.	.
8F\)	.	8A/)	.	8a/	.	(16dd\LL	.
.	.	.	.	.	.	16a\	.
8r	.	8r	.	8r	.	16ff\	.
.	.	.	.	.	.	16dd\JJ)	.
4r	.	4r	.	4r	.	8aa\L	.
.	.	.	.	.	.	8aa\J	.
=217	=217	=217	=217	=217	=217	=217	=217
(2D\	.	(4.A-/	.	(16f/LL	.	2b\	.
.	.	.	.	16a-/	.	.	.
.	.	.	.	16g/	.	.	.
.	.	.	.	16a-/JJ	.	.	.
.	.	.	.	16g/LL	.	.	.
.	.	.	.	16a-/	.	.	.
.	.	8F/	.	16g/	.	.	.
.	.	.	.	16a-/JJ)	.	.	.
8E\)	.	8G/)	.	8g/	.	(16ccn\LL	.
.	.	.	.	.	.	16g\	.
8r	.	8r	.	8r	.	16ee\	.
.	.	.	.	.	.	16cc\JJ)	.
4r	.	4r	.	4r	.	8gg\L	.
.	.	.	.	.	.	8gg\J	.
=218	=218	=218	=218	=218	=218	=218	=218
(2E\	.	2c#\	.	(2G/	.	16r	.
.	.	.	.	.	.	(16bb-\LL	.
.	.	.	.	.	.	16aa\	.
.	.	.	.	.	.	16bb-\JJ	.
.	.	.	.	.	.	16aa\LL	.
.	.	.	.	.	.	16bb-\	.
.	.	.	.	.	.	16aa\	.
.	.	.	.	.	.	16bb-\JJ	.
8F\)	.	(16d\LL	.	16A/LL)	.	8aa\)	.
.	.	16A\	.	(16dd\	.	.	.
8r	.	16f\	.	16cc#\	.	8r	.
.	.	16d\JJ)	.	16dd\JJ	.	.	.
4r	.	8a\L	.	16cc#\LL	.	4r	.
.	.	.	.	16dd\	.	.	.
.	.	8a\J	.	16cc#\	.	.	.
.	.	.	.	16dd\JJ)	.	.	.
=219	=219	=219	=219	=219	=219	=219	=219
(2D\	.	2B/	.	(2f/	.	16r	.
.	.	.	.	.	.	(16aa-\LL	.
.	.	.	.	.	.	16gg\	.
.	.	.	.	.	.	16aa-\JJ	.
.	.	.	.	.	.	16gg\LL	.
.	.	.	.	.	.	16aa-\	.
.	.	.	.	.	.	16gg\	.
.	.	.	.	.	.	16aa-\JJ	.
8E\)	.	(16cn\LL	.	16e/LL)	.	8gg\)	.
.	.	16G\	.	(16ccn/	.	.	.
8r	.	16e\	.	16b/	.	8r	.
.	.	16c\JJ)	.	16cc/JJ	.	.	.
4r	.	8g\L	.	16b/LL	.	4r	.
.	.	.	.	16cc/	.	.	.
.	.	8g\J	.	16b/	.	.	.
.	.	.	.	16cc/JJ)	.	.	.
=220	=220	=220	=220	=220	=220	=220	=220
1r	.	2.g\	p	4r	.	4r	.
.	.	.	.	8cc#'\	p	8ee'\	p
.	.	.	.	8r	.	8r	.
.	.	.	.	[2dd\	.	[2ff\	.
.	.	8a-'\	.	.	.	.	.
.	.	8r	.	.	.	.	.
=221	=221	=221	=221	=221	=221	=221	=221
2.B\	p	2.g\	.	4dd\]	.	4ff\]	.
.	.	.	.	8cc#'\	.	8ee'\	.
.	.	.	.	8r	.	8r	.
.	.	.	.	[2dd\	.	[2ff\	.
8c'\	.	8a-'\	.	.	.	.	.
8r	.	8r	.	.	.	.	.
=222	=222	=222	=222	=222	=222	=222	=222
4.B\	.	4.g\	.	8dd\L]	.	8ff\L]	.
.	.	.	.	8cc#\J	.	8ee'\J	.
.	.	.	.	4.dd\	.	4.ff\	.
8c'\	.	8a-'\	.	.	.	.	.
4.B\	.	4.g\	.	.	.	.	.
.	.	.	.	8ee'\	.	8ccc#'\	.
.	.	.	.	[4ff\	.	[4ddd\	.
8c'\	.	8a-'\	.	.	.	.	.
=223	=223	=223	=223	=223	=223	=223	=223
4.B\	.	4.g\	.	8ff\]	.	8ddd\]	.
.	.	.	.	8ee'\	.	8ccc#'\	.
.	.	.	.	4.ff\	.	4.ddd\	.
8c'\	.	8a-'\	.	.	.	.	.
4.B\	.	4.g\	.	.	.	.	.
.	.	.	.	8ccc#'\	.	8eee'\	.
.	.	.	.	[4ddd\	.	[4fff\	.
8c'\	.	8a-'\	.	.	.	.	.
=224	=224	=224	=224	=224	=224	=224	=224
8.B\L	.	8.g\L	.	16ddd\LL]	.	16fff\LL]	.
.	.	.	.	16ccc#\J	.	16eee\J	.
.	.	.	.	8.ddd\J	.	8.fff\J	.
16c\Jk	.	16a-\Jk	.	.	.	.	.
8.B\L	.	8.g\L	.	.	.	.	.
.	.	.	.	16ccc#\LK	.	16eee\LK	.
.	.	.	.	8.ddd\J	.	8.fff\J	.
16c\Jk	.	16a-\Jk	.	.	.	.	.
8.B\L	.	8.g\L	.	.	.	.	.
.	.	.	.	16ccc#\LK	.	16eee\LK	.
.	.	.	.	8.ddd\J	.	8.fff\J	.
16c\Jk	.	16a-\Jk	.	.	.	.	.
8.B\L	.	8.g\L	.	.	.	.	.
.	.	.	.	16ccc#\LK	.	16eee\LK	.
.	.	.	.	[8ddd\J	.	[8fff\J	.
16c\Jk	.	16a-\Jk	.	.	.	.	.
=225	=225	=225	=225	=225	=225	=225	=225
8B\	f	8g\	f	8ddd\L]	f	8fff'\L]	f
8r	.	8r	.	(16ddd\L	.	(16fff\L	.
.	.	.	.	16eee\JJ	.	16ggg\JJ	.
8G\	.	8d\ 8f\	.	8fff'\L)	.	8aaa'\L)	.
8r	.	8r	.	(16bb\L	.	(16ddd\L	.
.	.	.	.	16cccn\JJ	.	16eee\JJ	.
8G\	.	8d\ 8f\	.	8ddd'\L)	.	8fff'\L)	.
8r	.	8r	.	(16dd\L	.	(16ff\L	.
.	.	.	.	16ee\JJ	.	16gg\JJ	.
8GG/	.	8B\ 8d\	.	8ff'\L)	.	8aa'\L)	.
8r	.	8r	.	(16b\L	.	(16dd\L	.
.	.	.	.	16cc\JJ	.	16ee\JJ	.
=226	=226	=226	=226	=226	=226	=226	=226
8GG/	.	8B\ 8d\	.	8dd'\L)	.	8ff'\L)	.
8r	.	8r	.	(16b\L	.	(16dd\L	.
.	.	.	.	16cc\JJ)	.	16ee\JJ	.
4r	.	4r	.	(16dd\LL	.	(16ff\LL)	.
.	.	.	.	16ee\	.	16gg\	.
.	.	.	.	16dd\	.	16ff\	.
.	.	.	.	16cc\JJ)	.	16ee\JJ)	.
2r	.	2r	.	(16b/LL	.	(16dd\LL	.
.	.	.	.	16cc/	.	16ee\	.
.	.	.	.	16b/	.	16dd\	.
.	.	.	.	16a/JJ	.	16cc\JJ	.
.	.	.	.	16g/LL	.	16b/LL	.
.	.	.	.	16f/	.	16a/	.
.	.	.	.	16e/	.	16g/	.
.	.	.	.	16d/JJ)	.	16f/JJ)	.
=227	=227	=227	=227	=227	=227	=227	=227
8CC/	f	8C/	f	8c/	f	8G/ 8e/	f
8r	.	8r	.	8r	.	8r	.
4r	.	4r	.	4r	.	(16g/LL	p
.	.	.	.	.	.	16a/	.
.	.	.	.	.	.	16b/	.
.	.	.	.	.	.	16g/JJ	.
2r	.	2r	.	2r	.	16cc\LL	.
.	.	.	.	.	.	16dd\	.
.	.	.	.	.	.	16ee\	.
.	.	.	.	.	.	16cc\JJ)	.
.	.	.	.	.	.	8gg'\L	.
.	.	.	.	.	.	8gg'\J	.
=228	=228	=228	=228	=228	=228	=228	=228
8F\	p	8A/	p	4r	.	(4gg\	.
8r	.	8r	.	.	.	.	.
4r	.	4r	.	(16A/LL	p	[2.ff\)	.
.	.	.	.	16B/	.	.	.
.	.	.	.	16c#/	.	.	.
.	.	.	.	16A/JJ	.	.	.
2r	.	2r	.	16d/LL	.	.	.
.	.	.	.	16e/	.	.	.
.	.	.	.	16f/	.	.	.
.	.	.	.	16d/JJ)	.	.	.
.	.	.	.	8a'/L	.	.	.
.	.	.	.	8a'/J	.	.	.
=229	=229	=229	=229	=229	=229	=229	=229
4r	.	2r	.	(4a/	.	(2.ff\]	.
(16GG/LL	.	.	.	2.g/	.	.	.
16AA/	.	.	.	.	.	.	.
16BB/	.	.	.	.	.	.	.
16GG/JJ	.	.	.	.	.	.	.
16BB/LL	.	4r	.	.	.	.	.
16C/	.	.	.	.	.	.	.
16D/	.	.	.	.	.	.	.
16BB/JJ	.	.	.	.	.	.	.
16G\LL	.	(4d\	.	.	.	4bb\	.
16F\	.	.	.	.	.	.	.
16E\	.	.	.	.	.	.	.
16D\JJ)	.	.	.	.	.	.	.
=230	=230	=230	=230	=230	=230	=230	=230
8E\	.	8G/)	.	(16g/LL)	.	8ccc\)	.
.	.	.	.	16a/	.	.	.
8r	.	8r	.	16b/	.	8r	.
.	.	.	.	16cc/JJ	.	.	.
8F\	.	8c\	.	16b/LL	.	8aa\	.
.	.	.	.	16a/	.	.	.
8r	.	8r	.	16g/	.	8r	.
.	.	.	.	16f/JJ)	.	.	.
8G\	.	8c\	.	(16e/LL	.	8gg\	.
.	.	.	.	16f/	.	.	.
8r	.	8r	.	16g/	.	8r	.
.	.	.	.	16a/JJ	.	.	.
8GG/	.	8F/ 8G/	.	16g/LL	.	8b\	.
.	.	.	.	16f/	.	.	.
8r	.	8r	.	16e/	.	8r	.
.	.	.	.	16d/JJ)	.	.	.
=231	=231	=231	=231	=231	=231	=231	=231
8C/	f	8E/ 8G/	f	8c/	f	8cc\	f
8r	.	8r	.	8r	.	8r	.
4r	.	(16G/LL	p	4r	.	4r	.
.	.	16A/	.	.	.	.	.
.	.	16B/	.	.	.	.	.
.	.	16G/JJ	.	.	.	.	.
2r	.	16c/LL	.	2r	.	2r	.
.	.	16d/	.	.	.	.	.
.	.	16e/	.	.	.	.	.
.	.	16c/JJ)	.	.	.	.	.
.	.	8g'\L	.	.	.	.	.
.	.	8g'\J	.	.	.	.	.
=232	=232	=232	=232	=232	=232	=232	=232
1r	.	(4g\	.	1r	.	4r	.
.	.	[2.f\)	.	.	.	(16a\LL	p
.	.	.	.	.	.	16b\	.
.	.	.	.	.	.	16cc#\	.
.	.	.	.	.	.	16a\JJ	.
.	.	.	.	.	.	16dd\LL	.
.	.	.	.	.	.	16ee\	.
.	.	.	.	.	.	16ff\	.
.	.	.	.	.	.	16dd\JJ)	.
.	.	.	.	.	.	8aa'\L	.
.	.	.	.	.	.	8aa'\J	.
=233	=233	=233	=233	=233	=233	=233	=233
1r	.	2f\]	.	4r	.	(4aa\	.
.	.	.	.	(16B/LL	p	[2.gg\)	.
.	.	.	.	16c/	.	.	.
.	.	.	.	16d/	.	.	.
.	.	.	.	16B/JJ	.	.	.
.	.	[2e\	.	16c#/LL	.	.	.
.	.	.	.	16d/	.	.	.
.	.	.	.	16e/	.	.	.
.	.	.	.	16c#/JJ)	.	.	.
.	.	.	.	8a'/L	.	.	.
.	.	.	.	8a'/J	.	.	.
=234	=234	=234	=234	=234	=234	=234	=234
4r	.	(4e\]	.	2.a/	.	(4gg\]	.
(16D\LL	p	2d\	.	.	.	2ff\)	.
16E\	.	.	.	.	.	.	.
16F\	.	.	.	.	.	.	.
16D\JJ	.	.	.	.	.	.	.
16A\LL	.	.	.	.	.	.	.
16B\	.	.	.	.	.	.	.
16c#\	.	.	.	.	.	.	.
16A\JJ)	.	.	.	.	.	.	.
8d\L	.	4D'/)	.	4A/	.	[4ff\	.
8d'\J	.	.	.	.	.	.	.
=235	=235	=235	=235	=235	=235	=235	=235
(4e\	pp	[1E	pp	(4G/	pp	(4ff\]	pp
4G#\	.	.	.	4B/	.	4ee\	.
4A\	.	.	.	4c/	.	4cc\	.
4c\)	.	.	.	[4e/)	.	4a/	.
=236	=236	=236	=236	=236	=236	=236	=236
(4B\	.	4E/]	.	(4e/]	.	4g#/	.
4GG#/	.	2E/	.	4B/	.	4e/	.
4AA/	.	.	.	4c/	.	4c/	.
4C/)	.	[4E/	.	4e/)	.	4A/)	.
=237	=237	=237	=237	=237	=237	=237	=237
[1C	.	4E/_	.	1Gn (1e	.	(1B-	.
.	.	(16E/LL]	.	.	.	.	.
.	.	16F/	.	.	.	.	.
.	.	16G/	.	.	.	.	.
.	.	16F/JJ	.	.	.	.	.
.	.	16E/LL	.	.	.	.	.
.	.	16F/	.	.	.	.	.
.	.	16E/	.	.	.	.	.
.	.	16D/JJ	.	.	.	.	.
.	.	16C/LL	.	.	.	.	.
.	.	16D/	.	.	.	.	.
.	.	16E/	.	.	.	.	.
.	.	16F/JJ)	.	.	.	.	.
=238	=238	=238	=238	=238	=238	=238	=238
2C/]	.	(16G/LL	.	2B-/	.	2G/ 2e/	.
.	.	16A/	.	.	.	.	.
.	.	16G/	.	.	.	.	.
.	.	16F/JJ	.	.	.	.	.
.	.	16E/LL	.	.	.	.	.
.	.	16F/	.	.	.	.	.
.	.	16E/	.	.	.	.	.
.	.	16D/JJ)	.	.	.	.	.
(16C/LL	.	2C/ 2G/	.	2e/)	.	2b-\)	.
16BB-/	.	.	.	.	.	.	.
16AA/	.	.	.	.	.	.	.
16GG/JJ	.	.	.	.	.	.	.
16FF/LL	.	.	.	.	.	.	.
16EE/	.	.	.	.	.	.	.
16DD/	.	.	.	.	.	.	.
16CC/JJ)	.	.	.	.	.	.	.
=239	=239	=239	=239	=239	=239	=239	=239
8FF\L	f	16C/ 16A/LL	f	16f/LL	f	2a/	f
.	.	16F/	.	16a/	.	.	.
8F\	.	16G/	.	16bn/	.	.	.
.	.	16A/JJ	.	16cc/JJ	.	.	.
8F\	.	16B/LL	.	16dd\LL	.	.	.
.	.	16c/	.	16ee\	.	.	.
8F\J	f	16d/	.	16ff\	.	.	.
.	.	16e/JJ	.	16gg\JJ	.	.	.
8DD/L	.	16f'\LL	f	16aa'\LL	f	2aa\	f
.	.	(16f\	.	(16a\	.	.	.
8D/	.	16e\	.	16g#\	.	.	.
.	.	16f\JJ	.	16a\JJ	.	.	.
8D/	.	16g\LL	.	16b\LL	.	.	.
.	.	16f\	.	16a\	.	.	.
8D/J	.	16e\	.	16g#\	.	.	.
.	.	16f\JJ)	.	16a\JJ)	.	.	.
=240	=240	=240	=240	=240	=240	=240	=240
8GG\L	f	16r	.	16r	.	2gg\	f
.	.	(16e\LL	f	(16g/LL	f	.	.
8G\	.	16d#\	.	16f#/	.	.	.
.	.	16e\JJ	.	16g/JJ	.	.	.
8G\	.	16f\LL	.	16a/LL	.	.	.
.	.	16e\	.	16g/	.	.	.
8G\J	f	16d#\	.	16f#/	.	.	.
.	.	16e\JJ)	.	16g/JJ)	.	.	.
8GG\L	.	16r	.	16r	.	2bbn\	f
.	.	(16dn\LL	f	(16b\LL	f	.	.
8G\	.	16f\	.	16dd\	.	.	.
.	.	16d\JJ	.	16b\JJ	.	.	.
8G\	.	16f\LL	.	16dd\LL	.	.	.
.	.	16d\	.	16b\	.	.	.
8G\J	.	16f\)	.	16dd\	.	.	.
.	.	16d\JJ	.	16b\JJ)	.	.	.
=241	=241	=241	=241	=241	=241	=241	=241
8C/	p	8e\	p	8cc\	p	8ccc\	p
8r	.	8r	.	8r	.	8r	.
4r	.	4r	.	4r	.	8ddd#'\	.
.	.	.	.	.	.	8r	.
4r	.	4r	.	4r	.	[2eee\	.
8g#'\	.	8dd'\	.	8bb'\	.	.	.
8r	.	8r	.	8r	.	.	.
=242	=242	=242	=242	=242	=242	=242	=242
(4a\	.	(4cc\	.	(4ccc\	.	4eee\]	.
4gn\	.	4b-\	.	4ccc#\	.	(4eee\	.
4f\	.	4a\	.	4ddd\	.	4fff\	.
8e\L	.	8g\L	.	8eee\L	.	8ggg\L	.
8d\J)	.	8f\J)	.	8fff\J)	.	8aaa\J)	.
=243	=243	=243	=243	=243	=243	=243	=243
[1g	.	(8g\L	.	(2eee\	.	[2ggg\	.
.	.	16a\L	.	.	.	.	.
.	.	16bn\JJ	.	.	.	.	.
.	.	16cc\LL	.	.	.	.	.
.	.	16b\	.	.	.	.	.
.	.	16cc\	.	.	.	.	.
.	.	16dd\JJ	.	.	.	.	.
.	.	2ee\)	.	4cccn\	.	8ggg\L]	.
.	.	.	.	.	.	(16fff\L	.
.	.	.	.	.	.	16eee\JJ	.
.	.	.	.	4gg\)	.	16ddd\LL	.
.	.	.	.	.	.	16ccc\	.
.	.	.	.	.	.	16bb\	.
.	.	.	.	.	.	16ccc\JJ)	.
=244	=244	=244	=244	=244	=244	=244	=244
1g]	.	2dd\	.	2.ff\	.	(16bb\LL	.
.	.	.	.	.	.	16ddd\	.
.	.	.	.	.	.	16fff\	.
.	.	.	.	.	.	16ddd\JJ	.
.	.	.	.	.	.	16bb\LL	.
.	.	.	.	.	.	16gg\	.
.	.	.	.	.	.	16ff\	.
.	.	.	.	.	.	16dd\JJ	.
.	.	4d\	.	.	.	16b\LL	.
.	.	.	.	.	.	16dd\	.
.	.	.	.	.	.	16ff\	.
.	.	.	.	.	.	16dd\JJ	.
.	.	4d\ 4f\	.	(8dd\L	.	16b/LL	.
.	.	.	.	.	.	16g/	.
.	.	.	.	16ee\L	.	16f/	.
.	.	.	.	16ff\JJ)	.	16d/JJ)	.
=245	=245	=245	=245	=245	=245	=245	=245
[1G	.	2c\ 2e\	.	[2gg\	.	(16c/LL	.
.	.	.	.	.	.	16G/	.
.	.	.	.	.	.	16A/	.
.	.	.	.	.	.	16B/JJ	.
.	.	.	.	.	.	16c/LL	.
.	.	.	.	.	.	16B/	.
.	.	.	.	.	.	16c/	.
.	.	.	.	.	.	16d/JJ)	.
.	.	(2c\	.	8gg\L]	.	2e/	.
.	.	.	.	(16ff\L	.	.	.
.	.	.	.	16ee\JJ	.	.	.
.	.	.	.	16dd\LL	.	.	.
.	.	.	.	16cc\	.	.	.
.	.	.	.	16b\	.	.	.
.	.	.	.	16cc\JJ)	.	.	.
=246	=246	=246	=246	=246	=246	=246	=246
1G_	.	2.d\	.	(16b\LL	.	(2.f/	.
.	.	.	.	16dd\	.	.	.
.	.	.	.	16ff\	.	.	.
.	.	.	.	16dd\JJ	.	.	.
.	.	.	.	16b/LL	.	.	.
.	.	.	.	16g/	.	.	.
.	.	.	.	16f/	.	.	.
.	.	.	.	16d/JJ	.	.	.
.	.	.	.	16B/LL	.	.	.
.	.	.	.	16d/	.	.	.
.	.	.	.	16f/	.	.	.
.	.	.	.	16d/JJ	.	.	.
.	.	[4G/)	.	16B/LL	.	4dd\)	.
.	.	.	.	16d/	.	.	.
.	.	.	.	16g/	.	.	.
.	.	.	.	16f/JJ)	.	.	.
=247	=247	=247	=247	=247	=247	=247	=247
8G\]	.	8G/L]	.	16e/LL	.	16ee\LL	.
.	.	.	.	(16e/	.	(16gg\	.
8r	.	(16G/L	.	16f/	.	16aa\	.
.	.	16F/JJ	.	16g/JJ	.	16bb\JJ	.
[4g\	.	16E/LL	.	16a/LL	.	16ccc\LL	.
.	.	16F/	.	16g/	.	16bb\	.
.	.	16E/	.	16a/	.	16ccc\	.
.	.	16D/JJ)	.	16b/JJ)	.	16ddd\JJ)	.
8g\L]	.	8C'/L	.	8cc'\L	.	8eee'\L	.
(16f\L	.	8G'/	.	8dd'\	.	8fff'\	.
16e\JJ	.	.	.	.	.	.	.
16d\LL	.	8G'/	.	8ee'\	.	8ggg'\	.
16c\	.	.	.	.	.	.	.
16B\	.	8G'/J	.	8ff'\J	.	8aaa'\J	.
16c\JJ)	.	.	.	.	.	.	.
=248	=248	=248	=248	=248	=248	=248	=248
(16B\LL	.	4G/	.	1ff	.	1ddd	.
16d\	.	.	.	.	.	.	.
16f\	.	.	.	.	.	.	.
16d\JJ	.	.	.	.	.	.	.
16B\LL	.	2.b\	.	.	.	.	.
16G\	.	.	.	.	.	.	.
16F\	.	.	.	.	.	.	.
16D\JJ)	.	.	.	.	.	.	.
(16BB/LL	.	.	.	.	.	.	.
16D/	.	.	.	.	.	.	.
16F/	.	.	.	.	.	.	.
16D/JJ	.	.	.	.	.	.	.
16BB/LL	.	.	.	.	.	.	.
16D/	.	.	.	.	.	.	.
16BB/	.	.	.	.	.	.	.
16GG/JJ)	.	.	.	.	.	.	.
=249	=249	=249	=249	=249	=249	=249	=249
(16C/LL	f	4cc\	f	4ee\	f	4ccc\	f
16BB/	.	.	.	.	.	.	.
16C/	.	.	.	.	.	.	.
16AA'/JJ)	.	.	.	.	.	.	.
8GG'/L	.	4r	.	4r	.	4r	.
8AA'/J	.	.	.	.	.	.	.
8BB'/L	.	2r	.	2r	.	2r	.
8C'/	.	.	.	.	.	.	.
8D'/	.	.	.	.	.	.	.
8E'/J	.	.	.	.	.	.	.
=250	=250	=250	=250	=250	=250	=250	=250
8C'\L	.	(16c/LL	f	1r	.	1r	.
.	.	16B/	.	.	.	.	.
8D'\	.	16c/	.	.	.	.	.
.	.	16A/JJ)	.	.	.	.	.
8E'\	.	8G'/L	.	.	.	.	.
8F'\J	.	8A'/J	.	.	.	.	.
8D'\L	.	8B'/L	.	.	.	.	.
8E\	.	8c'/	.	.	.	.	.
8F'\	.	8d'/	.	.	.	.	.
8G'\J	.	8e'/J	.	.	.	.	.
=251	=251	=251	=251	=251	=251	=251	=251
8E'\L	.	8c'\L	f	2r	.	(16cc\LL	f
.	.	.	.	.	.	16b\	.
8F'\	.	8d'\	.	.	.	16cc\	.
.	.	.	.	.	.	16a\JJ)	.
8G'\	.	8e'\	.	.	.	8g'\L	.
8F'\J	.	8d'\J	.	.	.	8a'\J	.
8D'\L	.	8f'\L	.	4r	.	8b'\L	.
8E'\	.	8e'\	.	.	.	8cc'\	.
8BB'\	.	8g'\	.	4f'/	.	8dd'\	.
8C'\J	.	8g'\J	.	.	.	8ee'\J	.
=252	=252	=252	=252	=252	=252	=252	=252
8G\L	.	8a\L	.	8e'/L	.	8cc#'\L	.
8F\	.	8a\	.	8d'/	.	8dd'\	.
8C#\	.	8g\	.	8a/	.	8ee'\	.
8D\J	.	8f\J	.	8a/J	.	8ff'\J	.
8E\L	.	8c\L	.	8g/L	.	8gg'\L	.
8F\	.	8f\	.	8cc/	.	8aa'\	.
8D\	.	8f\	.	8g/	.	8bb'\	.
8E\J	.	8e\J	.	8g/J	.	8ccc#'\J	.
=253	=253	=253	=253	=253	=253	=253	=253
8BB/L	.	8f\L	.	8g\L	.	8ddd'\L	.
8Cn/	.	8e\	.	8gg\	.	8eee'\	.
8AA/	.	8c\	.	8ff\	.	8fff'\	.
8GG/J	.	8c\J	.	8ee\J	.	8ggg'\J	.
8FF/	.	8c\	.	8ff\	.	8aaa\	.
8r	.	8r	.	8r	.	8r	.
8GG/	.	8G\ 8f\	.	8dd\	.	8bbb\	.
8r	.	8r	.	8r	.	8r	.
=254	=254	=254	=254	=254	=254	=254	=254
4CC/	.	4G/ 4e/	.	4cc\	.	(16cccc\LL	.
.	.	.	.	.	.	16bbb\	.
.	.	.	.	.	.	16cccc\	.
.	.	.	.	.	.	16aaa\JJ	.
8r	.	8r	.	8r	.	8ggg'\L)	.
8C'/	.	8G'/ 8f'/	.	8b'\	.	[8ggg\J	.
4C'/	.	4G'/ 4e'/	.	4cc'\	.	(16ggg\LL]	.
.	.	.	.	.	.	16fff#\	.
.	.	.	.	.	.	16ggg\	.
.	.	.	.	.	.	16eee\JJ	.
8r	.	8r	.	8r	.	8ccc'\L)	.
8C/	.	8c\ 8f\	.	8a/	.	[8ccc\J	.
=255	=255	=255	=255	=255	=255	=255	=255
4C/	.	4c\ 4e\	.	4g/	.	(16ccc\LL]	.
.	.	.	.	.	.	16bb\	.
.	.	.	.	.	.	16ccc\	.
.	.	.	.	.	.	16aa\JJ	.
8r	.	8r	.	8r	.	8gg'\L)	.
8C/	.	8B/	.	8f/	.	[8g/J	.
4C/	.	4c/	.	4e/	.	(16g/LL]	.
.	.	.	.	.	.	16f#/	.
.	.	.	.	.	.	16g/	.
.	.	.	.	.	.	16e/JJ)	.
8r	.	8r	.	8r	.	8c/L	.
8C/	.	8F/	.	8A/	.	8c/J	.
=256	=256	=256	=256	=256	=256	=256	=256
4C/	.	4E/	.	4G/	.	[1c	.
4r	.	4r	.	4r	.	.	.
2r	.	2r	.	4r	.	.	.
.	.	.	.	8d#'/	p	.	.
.	.	.	.	8r	.	.	.
=257	=257	=257	=257	=257	=257	=257	=257
2r	.	4r	.	2.e/	.	2.c/]	.
.	.	8A'/	p	.	.	.	.
.	.	8r	.	.	.	.	.
4r	.	[2G/	.	.	.	.	.
4GG/	.	.	.	(8.dn/L	.	(8.f/L	.
.	.	.	.	16B/Jk)	.	16d/Jk)	.
=258	=258	=258	=258	=258	=258	=258	=258
4CC/	.	4G/]	.	4c/	.	[1c	.
4r	.	4r	.	4r	.	.	.
2r	.	2r	.	4r	.	.	.
.	.	.	.	8d#'/	.	.	.
.	.	.	.	8r	.	.	.
=259	=259	=259	=259	=259	=259	=259	=259
2r	.	4r	.	2.e/	.	2.c/]	.
.	.	8A'/	.	.	.	.	.
.	.	8r	.	.	.	.	.
4r	.	[2G/	.	.	.	.	.
4GG/	.	.	.	(8.dn/L	.	(8.f/L	.
.	.	.	.	16B/Jk)	.	16d/Jk)	.
=260	=260	=260	=260	=260	=260	=260	=260
4CC/	.	4G/]	.	4c/	.	2.c/	.
4r	.	4r	.	4r	.	.	.
4r	.	4r	.	4r	.	.	.
4GG/	.	[4G/	.	(8.d/L	.	(8.f/L	.
.	.	.	.	16B/Jk)	.	16d/Jk)	.
=261	=261	=261	=261	=261	=261	=261	=261
4CC/	.	4G/]	.	4c/	.	2.c/	.
4r	.	4r	.	4r	.	.	.
4r	.	4r	.	4r	.	.	.
[4GG/	.	[4G/	.	(8.d/L	.	(8.f/L	.
.	.	.	.	16B/Jk)	.	16d/Jk)	.
=262	=262	=262	=262	=262	=262	=262	=262
4GG/]	pp	1G_	pp	(2.d/	pp	(2.f/	pp
8FF#/	.	.	.	.	.	.	.
8r	.	.	.	.	.	.	.
[2GG/	.	.	.	.	.	.	.
.	.	.	.	8.e/L	.	8.g/L	.
.	.	.	.	16c/Jk)	.	16e/Jk)	.
=263	=263	=263	=263	=263	=263	=263	=263
4GG/]	.	1G_	mp	(2.e/	.	(2.g/	.
8FF#/	.	.	.	.	.	.	.
8r	.	.	.	.	.	.	.
[2GG/	.	.	.	.	.	.	.
.	.	.	.	8.f/L	.	8.a/L	.
.	.	.	.	16d/Jk)	.	16f/Jk)	.
=264	=264	=264	=264	=264	=264	=264	=264
1GG_	.	8G/]	.	8f/	.	8a/	.
.	.	8r	.	8r	.	8r	.
.	.	8f'\	.	8d/	.	8b-\	.
*	*	*^	*	*	*	*	*
.	.	4r	8r	.	8r	.	8r	.
.	.	.	8f\	.	8d/	.	8bn\	.
*	*	*v	*v	*	*	*	*	*
.	.	8r	.	8r	.	8r	.
.	.	8g\	.	8e/	.	8cc\	.
.	.	8r	.	8r	.	8r	.
=265	=265	=265	=265	=265	=265	=265	=265
1GG_	.	8g\	.	8e/	.	8cc#\	.
.	.	8r	.	8r	.	8r	.
.	.	8f\	.	8a/	.	8dd\	.
.	.	8r	.	8r	.	8r	.
.	.	8f#\	.	8a/	.	8dd#\	.
.	.	8r	.	8r	.	8r	.
.	.	8g\	.	8b\	.	8ee\	.
.	.	8r	.	8r	.	8r	.
=266	=266	=266	=266	=266	=266	=266	=266
1GG_	.	8a\	.	8cc\	.	8ff\	.
.	.	8r	.	8r	.	8r	.
.	.	8a\	.	8cc\	.	8ff#\	.
.	.	8r	.	8r	.	8r	.
.	.	8b\	.	8dd\	.	8gg\	.
.	.	8r	.	8r	.	8r	.
.	.	8b\	.	8dd\	.	8gg#\	.
.	.	8r	.	8r	.	8r	.
=267	=267	=267	=267	=267	=267	=267	=267
4GG/]	.	2cc\	f	2ee\	f	2aa\	f
2G\	f	.	.	.	.	.	.
.	.	2dd\	.	2ff\	.	2bb\	.
4G\	.	.	.	.	.	.	.
=268	=268	=268	=268	=268	=268	=268	=268
4C/	.	4cc\	.	4ee\	.	4ccc\	.
4r	.	4r	.	4r	.	4r	.
4GG/	ff	4G/ 4d/	ff	4G/ 4f/	ff	4G/ 4d/ 4b/ 4gg/	ff
4r	.	4r	.	4r	.	4r	.
=269	=269	=269	=269	=269	=269	=269	=269
4CC/	.	4C/ 4c/	.	4G/ 4e/	.	4G/ 4e/ 4cc/	.
4r	.	4r	.	4r	.	4r	.
2r	.	2r	.	2r	.	2r	.
==	==	==	==	==	==	==	==
*-	*-	*-	*-	*-	*-	*-	*-
!!!ONB: Scanned with SharpEye into MusicXML by Don Anthony 2006///
!!!ONB: Converted to Humdrum by Craig Sapp 2006/07/24/
